; generated by PrusaSlicer 2.4.1+win64 on 2022-05-07 at 21:41:19 UTC
; ChIPs_1 Copyright 2022 Liao Choon Way. Licensed under CC BY 4.0

;
;

;
;
; 

; external perimeters extrusion width = 0.45mm
; perimeters extrusion width = 0.45mm
; infill extrusion width = 0.45mm
; solid infill extrusion width = 0.45mm
; top infill extrusion width = 0.40mm
; first layer extrusion width = 0.42mm

M73 P0 R177
M201 X2500 Y2500 Z400 E5000 ; sets maximum accelerations, mm/sec^2
M203 X180 Y180 Z12 E80 ; sets maximum feedrates, mm / sec
M204 P1250 R1250 T2500 ; sets acceleration (P, T) and retract acceleration (R), mm/sec^2
M205 X8.00 Y8.00 Z2.00 E10.00 ; sets the jerk limits, mm/sec
M205 S0 T0 ; sets the minimum extruding and travel feed rate, mm/sec
M107
;TYPE:Custom
M862.3 P "MINI" ; printer model check
G90 ; use absolute coordinates
M83 ; extruder relative mode
M104 S170 ; set extruder temp for bed leveling
M140 S60 ; set bed temp
M109 R170 ; wait for bed leveling temp
M190 S60 ; wait for bed temp
M204 T1250 ; set travel acceleration
G28 ; home all without mesh bed level
G29 ; mesh bed leveling 
M204 T2500 ; restore travel acceleration
M104 S215 ; set extruder temp
G92 E0
G1 Y-2 X179 F2400
G1 Z3 F720
M109 S215 ; wait for extruder temp

; intro line
G1 X170 F1000
G1 Z0.2 F720
G1 X110 E8 F900
G1 X40 E10 F700
G92 E0

M221 S95 ; set flow
G21 ; set units to millimeters
G90 ; use absolute coordinates
M83 ; use relative distances for extrusion
M900 K0.2 ; Filament gcode LA 1.5
; ; Filament gcode LA 1.0
M107
;LAYER_CHANGE
;Z:0.2
;HEIGHT:0.2
;BEFORE_LAYER_CHANGE
G92 E0.0
;0.2


G1 Z.2 F720
;AFTER_LAYER_CHANGE
;0.2
; printing object ChIPs_1.stl id:0 copy 0
G1 E-3.2 F4200
G1 Z.4 F720
G1 X157.016 Y157.96 F9000
G1 Z.2 F720
G1 E3.2 F2400
M204 P200
;TYPE:External perimeter
;WIDTH:0.42
G1 F300
G1 X160.766 Y157.96 E.11758
G1 X160.766 Y154.21 E.11758
G1 X163.596 Y154.21 E.08873
G1 X163.596 Y157.525 E.10393
G1 X163.661 Y158.06 E.01689
G1 X163.861 Y158.587 E.01767
G1 X164.181 Y159.05 E.01767
G1 X164.603 Y159.424 E.01767
G1 X165.102 Y159.686 E.01767
G1 X165.649 Y159.821 E.01767
G1 X166.213 Y159.821 E.01767
G1 X166.76 Y159.686 E.01767
G1 X167.259 Y159.424 E.01767
G1 X167.681 Y159.05 E.01767
G1 X168.001 Y158.587 E.01767
G1 X168.201 Y158.06 E.01767
G1 X168.266 Y157.525 E.01689
G1 X168.266 Y154.21 E.10393
G1 X171.096 Y154.21 E.08873
G1 X171.096 Y157.96 E.11758
G1 X174.846 Y157.96 E.11758
G1 X174.846 Y160.79 E.08873
G1 X171.096 Y160.79 E.11758
G1 X171.096 Y164.86 E.12761
G1 X174.846 Y164.86 E.11758
G1 X174.846 Y168.89 E.12636
G1 X171.096 Y168.89 E.11758
G1 X171.096 Y175.79 E.21634
G1 X168.866 Y175.79 E.06992
G1 X168.866 Y172.04 E.11758
G1 X162.996 Y172.04 E.18405
G1 X162.996 Y175.79 E.11758
G1 X160.766 Y175.79 E.06992
G1 X160.766 Y168.29 E.23516
G1 X156.581 Y168.29 E.13122
G1 X156.218 Y168.246 E.01146
G1 X155.9 Y168.125 E.01067
G1 X155.62 Y167.932 E.01067
G1 X155.394 Y167.677 E.01067
G1 X155.236 Y167.376 E.01067
G1 X155.154 Y167.045 E.01067
G1 X155.154 Y166.705 E.01067
G1 X155.236 Y166.374 E.01067
G1 X155.394 Y166.073 E.01067
G1 X155.62 Y165.818 E.01067
G1 X155.9 Y165.625 E.01067
G1 X156.218 Y165.504 E.01067
G1 X156.581 Y165.46 E.01146
G1 X160.766 Y165.46 E.13122
G1 X160.766 Y160.79 E.14642
G1 X157.016 Y160.79 E.11758
G1 X157.016 Y158.02 E.08685
M204 P1000
G1 E-2.24 F4200
;WIPE_START
G1 F7200
G1 X158.661 Y157.994 E-.912
;WIPE_END
G1 E-.048 F4200
G1 Z.4 F720
G1 X173.969 Y158.073 F9000
G1 Z.2 F720
G1 E3.2 F2400
M204 P200
;TYPE:Solid infill
;WIDTH:0.420838
G1 F300
G1 X174.563 Y158.667 E.02641
G1 X174.563 Y159.202 E.01679
G1 X173.604 Y158.243 E.04262
G1 X173.069 Y158.243 E.01679
G1 X174.563 Y159.736 E.06638
G1 X174.563 Y160.271 E.01679
G1 X172.535 Y158.243 E.09013
G1 X172.001 Y158.243 E.01679
G1 X174.265 Y160.507 E.10063
G1 X173.73 Y160.507 E.01679
G1 X171.296 Y158.073 E.10817
M204 P1000
G1 E-2.24 F4200
;WIPE_START
G1 F7200
G1 X172.46 Y159.237 E-.912
;WIPE_END
G1 E-.048 F4200
G1 Z.4 F720
G1 X170.983 Y155.087 F9000
G1 Z.2 F720
G1 E3.2 F2400
M204 P200
G1 F300
G1 X170.388 Y154.493 E.02641
G1 X169.854 Y154.493 E.01679
G1 X170.813 Y155.452 E.04262
G1 X170.813 Y155.986 E.01679
G1 X169.319 Y154.493 E.06638
G1 X168.785 Y154.493 E.01679
G1 X170.813 Y156.521 E.09013
G1 X170.813 Y157.055 E.01679
G1 X168.549 Y154.791 E.10063
G1 X168.549 Y155.325 E.01679
G1 X170.983 Y157.759 E.10817
M204 P1000
G1 E-2.24 F4200
;WIPE_START
G1 F7200
G1 X169.819 Y156.596 E-.912
;WIPE_END
G1 E-.048 F4200
G1 Z.4 F720
G1 X168.379 Y155.69 F9000
G1 Z.2 F720
G1 E3.2 F2400
M204 P200
G1 F300
G1 X173.196 Y160.507 E.21407
G1 X172.662 Y160.507 E.01679
G1 X168.549 Y156.394 E.18278
G1 X168.549 Y156.929 E.01679
G1 X172.127 Y160.507 E.15903
G1 X171.593 Y160.507 E.01679
G1 X168.549 Y157.463 E.13528
G1 X168.499 Y157.948 E.01532
G1 X171.058 Y160.507 E.11372
G1 X170.813 Y160.507 E.0077
G1 X170.813 Y160.796 E.00909
G1 X168.386 Y158.369 E.10786
G1 X168.232 Y158.75 E.0129
G1 X170.813 Y161.331 E.1147
G1 X170.813 Y161.865 E.01679
M73 P0 R176
G1 X168.014 Y159.066 E.1244
G1 X167.894 Y159.239 E.00662
G1 X167.766 Y159.353 E.00538
G1 X170.813 Y162.4 E.13541
G1 X170.813 Y162.934 E.01679
G1 X167.483 Y159.604 E.14801
G1 X167.421 Y159.659 E.00259
G1 X167.147 Y159.802 E.00973
G1 X170.813 Y163.469 E.16293
G1 X170.813 Y164.003 E.01679
G1 X166.782 Y159.972 E.17915
G1 X166.353 Y160.078 E.01388
G1 X170.983 Y164.707 E.20575
M204 P1000
G1 E-2.24 F4200
;WIPE_START
G1 F7200
G1 X169.819 Y163.544 E-.912
;WIPE_END
G1 E-.048 F4200
G1 Z.4 F720
G1 X173.921 Y164.973 F9000
G1 Z.2 F720
G1 E3.2 F2400
M204 P200
G1 F300
G1 X174.563 Y165.615 E.02854
G1 X174.563 Y166.15 E.01679
G1 X173.556 Y165.143 E.04475
G1 X173.022 Y165.143 E.01679
G1 X174.563 Y166.684 E.06851
G1 X174.563 Y167.219 E.01679
G1 X172.487 Y165.143 E.09226
G1 X171.953 Y165.143 E.01679
G1 X174.563 Y167.753 E.11601
G1 X174.563 Y168.288 E.01679
G1 X171.248 Y164.973 E.1473
M204 P1000
G1 E-2.24 F4200
;WIPE_START
G1 F7200
G1 X172.412 Y166.137 E-.912
;WIPE_END
G1 E-.048 F4200
G1 Z.4 F720
G1 X174.518 Y168.777 F9000
G1 Z.2 F720
G1 E3.2 F2400
M204 P200
G1 F300
G1 X165.675 Y159.934 E.39298
M204 P1000
G1 E-2.24 F4200
;WIPE_START
G1 F7200
G1 X166.839 Y161.098 E-.912
;WIPE_END
G1 E-.048 F4200
G1 Z.4 F720
G1 X163.483 Y155.07 F9000
G1 Z.2 F720
G1 E3.2 F2400
M204 P200
G1 F300
G1 X162.906 Y154.493 E.02563
G1 X162.372 Y154.493 E.01679
G1 X163.313 Y155.434 E.04184
G1 X163.313 Y155.969 E.01679
G1 X161.837 Y154.493 E.06559
G1 X161.303 Y154.493 E.01679
G1 X163.313 Y156.503 E.08934
G1 X163.313 Y157.038 E.01679
G1 X161.049 Y154.773 E.10063
G1 X161.049 Y155.308 E.01679
G1 X163.512 Y157.771 E.10946
M204 P1000
G1 E-2.24 F4200
;WIPE_START
G1 F7200
G1 X162.348 Y156.607 E-.912
;WIPE_END
G1 E-.048 F4200
G1 Z.4 F720
G1 X160.879 Y155.673 F9000
G1 Z.2 F720
G1 E3.2 F2400
M204 P200
G1 F300
G1 X163.415 Y158.208 E.11269
G1 X163.608 Y158.719 E.01716
G1 X163.968 Y159.239 E.01987
G1 X164.441 Y159.659 E.01987
G1 X165.001 Y159.952 E.01987
G1 X165.211 Y160.004 E.00679
G1 X173.814 Y168.607 E.38232
G1 X173.279 Y168.607 E.01679
G1 X161.049 Y156.377 E.54353
G1 X161.049 Y156.911 E.01679
G1 X172.745 Y168.607 E.51978
G1 X172.21 Y168.607 E.01679
G1 X161.049 Y157.446 E.49603
G1 X161.049 Y157.98 E.01679
G1 X171.676 Y168.607 E.47227
G1 X171.141 Y168.607 E.01679
G1 X160.777 Y158.243 E.4606
G1 X160.242 Y158.243 E.01679
G1 X170.813 Y168.813 E.46976
G1 X170.813 Y169.348 E.01679
G1 X159.708 Y158.243 E.49351
G1 X159.174 Y158.243 E.01679
G1 X170.813 Y169.882 E.51726
G1 X170.813 Y170.417 E.01679
G1 X158.639 Y158.243 E.54101
G1 X158.105 Y158.243 E.01679
G1 X160.369 Y160.507 E.10063
G1 X159.835 Y160.507 E.01679
G1 X157.57 Y158.243 E.10063
G1 X157.299 Y158.243 E.00853
M73 P1 R176
G1 X157.299 Y158.506 E.00826
G1 X159.3 Y160.507 E.08895
G1 X158.766 Y160.507 E.01679
G1 X157.299 Y159.04 E.0652
G1 X157.299 Y159.575 E.01679
G1 X158.231 Y160.507 E.04145
G1 X157.697 Y160.507 E.01679
G1 X157.129 Y159.939 E.02523
M204 P1000
G1 E-2.24 F4200
;WIPE_START
G1 F7200
G1 X157.697 Y160.507 E-.44502
G1 X158.231 Y160.507 E-.29618
G1 X158.013 Y160.289 E-.17081
;WIPE_END
G1 E-.048 F4200
G1 Z.4 F720
G1 X160.879 Y161.017 F9000
G1 Z.2 F720
G1 E3.2 F2400
M204 P200
G1 F300
G1 X170.813 Y170.951 E.44147
G1 X170.813 Y171.486 E.01679
G1 X161.049 Y161.721 E.43393
G1 X161.049 Y162.256 E.01679
M73 P1 R175
G1 X170.813 Y172.02 E.43393
G1 X170.813 Y172.555 E.01679
G1 X161.049 Y162.79 E.43393
G1 X161.049 Y163.325 E.01679
G1 X170.813 Y173.089 E.43393
G1 X170.813 Y173.623 E.01679
G1 X161.049 Y163.859 E.43393
G1 X161.049 Y164.394 E.01679
G1 X168.412 Y171.757 E.32724
G1 X167.878 Y171.757 E.01679
G1 X161.049 Y164.928 E.30349
G1 X161.049 Y165.462 E.01679
G1 X167.343 Y171.757 E.27974
G1 X166.809 Y171.757 E.01679
G1 X160.795 Y165.743 E.26728
G1 X160.26 Y165.743 E.01679
G1 X166.275 Y171.757 E.26728
G1 X165.74 Y171.757 E.01679
G1 X159.726 Y165.743 E.26728
G1 X159.191 Y165.743 E.01679
G1 X165.206 Y171.757 E.26728
G1 X164.671 Y171.757 E.01679
G1 X158.657 Y165.743 E.26728
G1 X158.122 Y165.743 E.01679
G1 X160.387 Y168.007 E.10063
G1 X159.852 Y168.007 E.01679
G1 X157.588 Y165.743 E.10063
G1 X157.053 Y165.743 E.01679
G1 X159.318 Y168.007 E.10063
G1 X158.783 Y168.007 E.01679
G1 X156.527 Y165.751 E.10025
G1 X156.286 Y165.781 E.00764
G1 X156.095 Y165.853 E.00643
G1 X158.249 Y168.007 E.09573
G1 X157.714 Y168.007 E.01679
G1 X155.776 Y166.068 E.08616
G1 X155.628 Y166.235 E.00698
G1 X155.552 Y166.38 E.00514
G1 X157.18 Y168.007 E.07233
G1 X156.645 Y168.007 E.01679
G1 X155.437 Y166.799 E.05371
G1 X155.437 Y167.011 E.00667
G1 X155.502 Y167.275 E.00854
G1 X155.628 Y167.515 E.00854
G1 X156.236 Y168.132 E.02719
M204 P1000
G1 E-2.24 F4200
;WIPE_START
G1 F7200
G1 X155.628 Y167.515 E-.47953
G1 X155.502 Y167.275 E-.15054
G1 X155.437 Y167.011 E-.15058
G1 X155.437 Y166.799 E-.1176
G1 X155.454 Y166.816 E-.01375
;WIPE_END
G1 E-.048 F4200
G1 Z.4 F720
G1 X160.879 Y168.499 F9000
G1 Z.2 F720
G1 E3.2 F2400
M204 P200
G1 F300
G1 X164.137 Y171.757 E.14477
G1 X163.602 Y171.757 E.01679
G1 X161.049 Y169.204 E.11348
G1 X161.049 Y169.738 E.01679
G1 X163.068 Y171.757 E.08973
G1 X162.713 Y171.757 E.01115
G1 X162.713 Y171.937 E.00565
G1 X161.049 Y170.273 E.07397
G1 X161.049 Y170.807 E.01679
G1 X162.713 Y172.471 E.07397
G1 X162.713 Y173.006 E.01679
G1 X161.049 Y171.341 E.07397
G1 X161.049 Y171.876 E.01679
G1 X162.713 Y173.54 E.07397
G1 X162.713 Y174.075 E.01679
G1 X161.049 Y172.41 E.07397
G1 X161.049 Y172.945 E.01679
G1 X162.713 Y174.609 E.07397
G1 X162.713 Y175.144 E.01679
G1 X161.049 Y173.479 E.07397
G1 X161.049 Y174.014 E.01679
G1 X162.542 Y175.507 E.06637
G1 X162.008 Y175.507 E.01679
G1 X161.049 Y174.548 E.04262
G1 X161.049 Y175.083 E.01679
G1 X161.643 Y175.677 E.02641
M204 P1000
G1 E-2.24 F4200
;WIPE_START
G1 F7200
G1 X161.049 Y175.083 E-.46571
G1 X161.049 Y174.548 E-.29618
G1 X161.24 Y174.74 E-.15011
;WIPE_END
G1 E-.048 F4200
G1 Z.4 F720
G1 X168.979 Y172.324 F9000
G1 Z.2 F720
G1 E3.2 F2400
M204 P200
G1 F300
G1 X170.813 Y174.158 E.08151
G1 X170.813 Y174.692 E.01679
G1 X169.149 Y173.028 E.07397
G1 X169.149 Y173.562 E.01679
G1 X170.813 Y175.227 E.07397
G1 X170.813 Y175.507 E.00881
G1 X170.559 Y175.507 E.00798
G1 X169.149 Y174.097 E.06267
G1 X169.149 Y174.631 E.01679
G1 X170.025 Y175.507 E.03892
G1 X169.49 Y175.507 E.01679
G1 X168.979 Y174.996 E.02271
M204 P1000
; stop printing object ChIPs_1.stl id:0 copy 0
M106 S84.15
;LAYER_CHANGE
;Z:0.4
;HEIGHT:0.2
;BEFORE_LAYER_CHANGE
G92 E0.0
;0.4


G1 Z.4 F720
;AFTER_LAYER_CHANGE
;0.4
; printing object ChIPs_1.stl id:0 copy 0
G1 X168.681 Y174.996 F9000
M204 P800
;TYPE:External perimeter
;WIDTH:0.45
G1 F1800
G1 X168.681 Y172.225 E.0938
G1 X163.181 Y172.225 E.18617
G1 X163.181 Y175.975 E.12693
G1 X160.581 Y175.975 E.08801
G1 X160.581 Y168.475 E.25387
G1 X156.569 Y168.475 E.13578
G1 X156.173 Y168.427 E.01351
G1 X155.813 Y168.29 E.01304
G1 X155.496 Y168.071 E.01304
G1 X155.24 Y167.783 E.01304
G1 X155.061 Y167.442 E.01304
G1 X154.969 Y167.068 E.01304
G1 X154.969 Y166.682 E.01304
G1 X155.061 Y166.308 E.01304
G1 X155.24 Y165.967 E.01304
G1 X155.496 Y165.679 E.01304
G1 X155.813 Y165.46 E.01304
G1 X156.173 Y165.323 E.01304
G1 X156.569 Y165.275 E.01351
G1 X160.581 Y165.275 E.13578
G1 X160.581 Y160.975 E.14555
G1 X156.831 Y160.975 E.12693
G1 X156.831 Y157.775 E.10832
G1 X160.581 Y157.775 E.12693
G1 X160.581 Y154.025 E.12693
G1 X163.781 Y154.025 E.10832
G1 X163.781 Y157.514 E.11809
G1 X163.842 Y158.015 E.01709
G1 X164.026 Y158.5 E.01756
G1 X164.32 Y158.927 E.01756
G1 X164.709 Y159.271 E.01756
G1 X165.168 Y159.512 E.01756
G1 X165.671 Y159.636 E.01756
G1 X166.19 Y159.636 E.01756
G1 X166.694 Y159.512 E.01756
G1 X167.153 Y159.271 E.01756
G1 X167.541 Y158.927 E.01756
G1 X167.836 Y158.5 E.01756
G1 X168.02 Y158.015 E.01756
G1 X168.081 Y157.514 E.01709
G1 X168.081 Y154.025 E.11809
G1 X171.281 Y154.025 E.10832
G1 X171.281 Y157.775 E.12693
G1 X175.031 Y157.775 E.12693
G1 X175.031 Y160.975 E.10832
G1 X171.281 Y160.975 E.12693
G1 X171.281 Y164.675 E.12524
G1 X175.031 Y164.675 E.12693
G1 X175.031 Y169.075 E.14893
G1 X171.281 Y169.075 E.12693
G1 X171.281 Y175.975 E.23356
G1 X168.681 Y175.975 E.08801
G1 X168.681 Y175.056 E.0311
M204 P1000
G1 E-2.24 F4200
;WIPE_START
G1 F7200
G1 X168.681 Y173.41 E-.912
;WIPE_END
G1 E-.048 F4200
G1 Z.6 F720
G1 X174.17 Y160.855 F9000
G1 Z.4 F720
G1 E3.2 F2400
;TYPE:Top solid infill
;WIDTH:0.404812
G1 X174.751 Y160.275 E.02472
G1 X174.751 Y159.763 E.0154
G1 X173.819 Y160.695 E.03966
G1 X173.307 Y160.695 E.0154
G1 X174.751 Y159.251 E.06144
G1 X174.751 Y158.739 E.0154
G1 X172.795 Y160.695 E.08322
G1 X172.283 Y160.695 E.0154
G1 X174.751 Y158.227 E.105
G1 X174.751 Y158.055 E.00518
G1 X174.411 Y158.055 E.01022
G1 X171.611 Y160.855 E.11916
G1 E-2.24 F4200
;WIPE_START
G1 F7200
G1 X172.774 Y159.692 E-.912
;WIPE_END
G1 E-.048 F4200
G1 Z.6 F720
G1 X174.258 Y168.955 F9000
G1 Z.4 F720
G1 E3.2 F2400
G1 X174.751 Y168.463 E.02094
G1 X174.751 Y167.951 E.0154
G1 X173.907 Y168.795 E.03588
G1 X173.396 Y168.795 E.0154
G1 X174.751 Y167.44 E.05766
G1 X174.751 Y166.928 E.0154
G1 X172.884 Y168.795 E.07944
G1 X172.372 Y168.795 E.0154
G1 X174.751 Y166.416 E.10122
G1 X174.751 Y165.904 E.0154
G1 X171.699 Y168.955 E.12984
G1 E-2.24 F4200
;WIPE_START
G1 F7200
G1 X172.863 Y167.792 E-.912
;WIPE_END
G1 E-.048 F4200
G1 Z.6 F720
G1 X171.161 Y175.123 F9000
G1 Z.4 F720
G1 E3.2 F2400
G1 X170.59 Y175.695 E.02431
G1 X170.078 Y175.695 E.0154
G1 X171.001 Y174.772 E.03926
G1 X171.001 Y174.26 E.0154
G1 X169.566 Y175.695 E.06104
G1 X169.054 Y175.695 E.0154
G1 X171.001 Y173.749 E.08282
G1 X171.001 Y173.237 E.0154
G1 X168.961 Y175.276 E.08679
G1 X168.961 Y174.764 E.0154
G1 X171.001 Y172.725 E.08679
G1 X171.001 Y172.213 E.0154
G1 X168.961 Y174.253 E.08679
G1 X168.961 Y173.741 E.0154
G1 X171.001 Y171.701 E.08679
G1 X171.001 Y171.19 E.0154
G1 X168.961 Y173.229 E.08679
G1 X168.961 Y172.717 E.0154
G1 X171.001 Y170.678 E.08679
G1 X171.001 Y170.166 E.0154
G1 X168.961 Y172.205 E.08679
G1 X168.961 Y171.945 E.00785
G1 X168.71 Y171.945 E.00755
G1 X171.161 Y169.494 E.10431
G1 E-2.24 F4200
;WIPE_START
G1 F7200
G1 X169.998 Y170.657 E-.912
;WIPE_END
G1 E-.048 F4200
G1 Z.6 F720
G1 X168.038 Y172.105 F9000
G1 Z.4 F720
G1 E3.2 F2400
G1 X171.001 Y169.143 E.12609
G1 X171.001 Y168.795 E.01047
G1 X171.348 Y168.795 E.01047
G1 X174.751 Y165.393 E.14478
G1 X174.751 Y164.955 E.01316
G1 X174.676 Y164.955 E.00224
G1 X167.687 Y171.945 E.29744
G1 X167.175 Y171.945 E.0154
G1 X174.164 Y164.955 E.29744
G1 X173.652 Y164.955 E.0154
G1 X166.663 Y171.945 E.29744
G1 X166.151 Y171.945 E.0154
G1 X173.141 Y164.955 E.29744
G1 X172.629 Y164.955 E.0154
G1 X165.639 Y171.945 E.29744
G1 X165.128 Y171.945 E.0154
G1 X172.117 Y164.955 E.29744
G1 X171.605 Y164.955 E.0154
G1 X164.616 Y171.945 E.29744
G1 X164.104 Y171.945 E.0154
G1 X171.093 Y164.955 E.29744
G1 X171.001 Y164.955 E.00279
G1 X171.001 Y164.536 E.01261
G1 X163.432 Y172.105 E.3221
G1 E-2.24 F4200
;WIPE_START
G1 F7200
G1 X164.595 Y170.942 E-.912
;WIPE_END
G1 E-.048 F4200
G1 Z.6 F720
G1 X163.061 Y175.035 F9000
G1 Z.4 F720
G1 E3.2 F2400
G1 X162.401 Y175.695 E.02809
G1 X161.889 Y175.695 E.0154
G1 X162.901 Y174.684 E.04303
G1 X162.901 Y174.172 E.0154
G1 X161.378 Y175.695 E.06481
G1 X160.866 Y175.695 E.0154
