; generated by PrusaSlicer 2.4.1+win64 on 2022-05-07 at 22:34:52 UTC
; ChIPs_3 Copyright 2022 Liao Choon Way. Licensed under CC BY 4.0

;
;

;
;
; 

; external perimeters extrusion width = 0.45mm
; perimeters extrusion width = 0.45mm
; infill extrusion width = 0.45mm
; solid infill extrusion width = 0.45mm
; top infill extrusion width = 0.40mm
; first layer extrusion width = 0.42mm

M73 P0 R202
M201 X2500 Y2500 Z400 E5000 ; sets maximum accelerations, mm/sec^2
M203 X180 Y180 Z12 E80 ; sets maximum feedrates, mm / sec
M204 P1250 R1250 T2500 ; sets acceleration (P, T) and retract acceleration (R), mm/sec^2
M205 X8.00 Y8.00 Z2.00 E10.00 ; sets the jerk limits, mm/sec
M205 S0 T0 ; sets the minimum extruding and travel feed rate, mm/sec
M107
;TYPE:Custom
M862.3 P "MINI" ; printer model check
G90 ; use absolute coordinates
M83 ; extruder relative mode
M104 S170 ; set extruder temp for bed leveling
M140 S60 ; set bed temp
M109 R170 ; wait for bed leveling temp
M190 S60 ; wait for bed temp
M204 T1250 ; set travel acceleration
G28 ; home all without mesh bed level
G29 ; mesh bed leveling 
M204 T2500 ; restore travel acceleration
M104 S215 ; set extruder temp
G92 E0
G1 Y-2 X179 F2400
G1 Z3 F720
M109 S215 ; wait for extruder temp

; intro line
G1 X170 F1000
G1 Z0.2 F720
G1 X110 E8 F900
G1 X40 E10 F700
G92 E0

M221 S95 ; set flow
G21 ; set units to millimeters
G90 ; use absolute coordinates
M83 ; use relative distances for extrusion
M900 K0.2 ; Filament gcode LA 1.5
; ; Filament gcode LA 1.0
M107
;LAYER_CHANGE
;Z:0.2
;HEIGHT:0.2
;BEFORE_LAYER_CHANGE
G92 E0.0
;0.2


G1 Z.2 F720
;AFTER_LAYER_CHANGE
;0.2
; printing object ChIPs_3.stl id:0 copy 0
G1 E-3.2 F4200
G1 Z.4 F720
G1 X155.141 Y157.96 F9000
G1 Z.2 F720
G1 E3.2 F2400
M204 P200
;TYPE:External perimeter
;WIDTH:0.42
G1 F300
G1 X158.891 Y157.96 E.11758
G1 X158.891 Y154.21 E.11758
G1 X161.721 Y154.21 E.08873
G1 X161.721 Y157.525 E.10393
G1 X161.786 Y158.06 E.01689
G1 X161.986 Y158.587 E.01767
G1 X162.306 Y159.05 E.01767
G1 X162.728 Y159.424 E.01767
G1 X163.227 Y159.686 E.01767
G1 X163.774 Y159.821 E.01767
G1 X164.338 Y159.821 E.01767
G1 X164.885 Y159.686 E.01767
G1 X165.384 Y159.424 E.01767
G1 X165.806 Y159.05 E.01767
G1 X166.126 Y158.587 E.01767
G1 X166.326 Y158.06 E.01767
G1 X166.391 Y157.525 E.01689
G1 X166.391 Y154.21 E.10393
G1 X169.221 Y154.21 E.08873
G1 X169.221 Y157.96 E.11758
G1 X176.721 Y157.96 E.23516
G1 X176.721 Y160.79 E.08873
G1 X172.971 Y160.79 E.11758
G1 X172.971 Y164.86 E.12761
G1 X176.721 Y164.86 E.11758
G1 X176.721 Y168.89 E.12636
G1 X172.971 Y168.89 E.11758
G1 X172.971 Y172.04 E.09877
G1 X169.221 Y172.04 E.11758
G1 X169.221 Y175.79 E.11758
G1 X166.991 Y175.79 E.06992
G1 X166.991 Y172.04 E.11758
G1 X161.121 Y172.04 E.18405
G1 X161.121 Y175.79 E.11758
G1 X158.891 Y175.79 E.06992
G1 X158.891 Y168.29 E.23516
G1 X154.706 Y168.29 E.13122
G1 X154.343 Y168.246 E.01146
G1 X154.025 Y168.125 E.01067
G1 X153.745 Y167.932 E.01067
G1 X153.519 Y167.677 E.01067
G1 X153.361 Y167.376 E.01067
G1 X153.279 Y167.045 E.01067
G1 X153.279 Y166.705 E.01067
G1 X153.361 Y166.374 E.01067
G1 X153.519 Y166.073 E.01067
G1 X153.745 Y165.818 E.01067
G1 X154.025 Y165.625 E.01067
G1 X154.343 Y165.504 E.01067
G1 X154.706 Y165.46 E.01146
G1 X158.891 Y165.46 E.13122
G1 X158.891 Y160.79 E.14642
G1 X155.141 Y160.79 E.11758
G1 X155.141 Y158.02 E.08685
M204 P1000
G1 E-2.24 F4200
;WIPE_START
G1 F7200
G1 X156.786 Y157.994 E-.912
;WIPE_END
G1 E-.048 F4200
G1 Z.4 F720
G1 X175.794 Y164.973 F9000
G1 Z.2 F720
G1 E3.2 F2400
M204 P200
;TYPE:Solid infill
;WIDTH:0.420932
G1 F300
G1 X176.438 Y165.617 E.02864
G1 X176.438 Y166.152 E.0168
G1 X175.429 Y165.143 E.04486
G1 X174.894 Y165.143 E.0168
G1 X176.438 Y166.687 E.06862
G1 X176.438 Y167.221 E.0168
G1 X174.36 Y165.143 E.09238
G1 X173.825 Y165.143 E.0168
G1 X176.438 Y167.756 E.11615
G1 X176.438 Y168.29 E.0168
G1 X173.121 Y164.973 E.14745
M204 P1000
G1 E-2.24 F4200
;WIPE_START
G1 F7200
M73 P0 R201
G1 X174.285 Y166.137 E-.912
;WIPE_END
G1 E-.048 F4200
G1 Z.4 F720
G1 X176.608 Y158.837 F9000
G1 Z.2 F720
G1 E3.2 F2400
M204 P200
G1 F300
G1 X176.013 Y158.243 E.02643
G1 X175.479 Y158.243 E.0168
G1 X176.438 Y159.202 E.04265
G1 X176.438 Y159.737 E.0168
G1 X174.944 Y158.243 E.06641
G1 X174.409 Y158.243 E.0168
G1 X176.438 Y160.271 E.09018
G1 X176.438 Y160.507 E.00741
G1 X176.139 Y160.507 E.00939
G1 X173.875 Y158.243 E.10066
G1 X173.34 Y158.243 E.0168
G1 X175.605 Y160.507 E.10066
G1 X175.07 Y160.507 E.0168
G1 X172.806 Y158.243 E.10066
G1 X172.271 Y158.243 E.0168
G1 X174.535 Y160.507 E.10066
G1 X174.001 Y160.507 E.0168
G1 X171.736 Y158.243 E.10066
G1 X171.202 Y158.243 E.0168
G1 X173.466 Y160.507 E.10066
G1 X172.932 Y160.507 E.0168
G1 X170.667 Y158.243 E.10066
G1 X170.133 Y158.243 E.0168
G1 X172.688 Y160.798 E.11359
G1 X172.688 Y161.333 E.0168
G1 X169.428 Y158.073 E.1449
M204 P1000
G1 E-2.24 F4200
;WIPE_START
G1 F7200
G1 X170.592 Y159.237 E-.912
;WIPE_END
G1 E-.048 F4200
G1 Z.4 F720
G1 X169.108 Y155.079 F9000
G1 Z.2 F720
G1 E3.2 F2400
M204 P200
G1 F300
G1 X168.521 Y154.493 E.02608
G1 X167.986 Y154.493 E.0168
G1 X168.938 Y155.444 E.0423
G1 X168.938 Y155.979 E.0168
G1 X167.452 Y154.493 E.06606
G1 X166.917 Y154.493 E.0168
G1 X168.938 Y156.514 E.08983
G1 X168.938 Y157.048 E.0168
G1 X166.674 Y154.784 E.10066
G1 X166.674 Y155.318 E.0168
G1 X169.108 Y157.752 E.1082
M204 P1000
G1 E-2.24 F4200
;WIPE_START
G1 F7200
G1 X167.944 Y156.589 E-.912
;WIPE_END
G1 E-.048 F4200
G1 Z.4 F720
G1 X166.504 Y155.683 F9000
G1 Z.2 F720
G1 E3.2 F2400
M204 P200
G1 F300
G1 X172.688 Y161.867 E.27489
G1 X172.688 Y162.402 E.0168
G1 X166.674 Y156.388 E.26735
G1 X166.674 Y156.922 E.0168
G1 X172.688 Y162.937 E.26735
G1 X172.688 Y163.471 E.0168
G1 X166.674 Y157.457 E.26735
G1 X166.625 Y157.943 E.01535
G1 X172.688 Y164.006 E.26951
G1 X172.688 Y164.54 E.0168
G1 X166.513 Y158.365 E.27451
G1 X166.359 Y158.746 E.01292
G1 X176.22 Y168.607 E.43833
G1 X175.686 Y168.607 E.0168
G1 X166.141 Y159.063 E.42427
G1 X166.019 Y159.239 E.00675
G1 X165.894 Y159.35 E.00525
G1 X175.151 Y168.607 E.41149
G1 X174.617 Y168.607 E.0168
G1 X165.611 Y159.601 E.40033
G1 X165.546 Y159.659 E.00272
G1 X165.275 Y159.801 E.0096
G1 X174.082 Y168.607 E.39147
G1 X173.547 Y168.607 E.0168
G1 X164.911 Y159.971 E.3839
G1 X164.482 Y160.077 E.01388
G1 X173.013 Y168.607 E.3792
G1 X172.688 Y168.607 E.01021
G1 X172.688 Y168.817 E.00659
G1 X163.805 Y159.934 E.39486
M204 P1000
G1 E-2.24 F4200
;WIPE_START
G1 F7200
G1 X164.969 Y161.098 E-.912
;WIPE_END
G1 E-.048 F4200
G1 Z.4 F720
G1 X160.867 Y154.323 F9000
G1 Z.2 F720
G1 E3.2 F2400
M204 P200
G1 F300
G1 X161.438 Y154.894 E.02538
G1 X161.438 Y155.429 E.0168
G1 X160.502 Y154.493 E.0416
G1 X159.968 Y154.493 E.0168
G1 X161.438 Y155.963 E.06536
G1 X161.438 Y156.498 E.0168
G1 X159.433 Y154.493 E.08913
G1 X159.174 Y154.493 E.00815
G1 X159.174 Y154.768 E.00865
G1 X161.438 Y157.032 E.10066
G1 X161.442 Y157.57 E.01691
G1 X159.174 Y155.303 E.10081
G1 X159.174 Y155.837 E.0168
G1 X161.537 Y158.2 E.10504
G1 X161.733 Y158.719 E.01744
G1 X162.093 Y159.239 E.01987
G1 X162.566 Y159.659 E.01987
G1 X163.126 Y159.952 E.01987
G1 X163.342 Y160.006 E.00701
G1 X172.688 Y169.352 E.41543
G1 X172.688 Y169.886 E.0168
G1 X159.174 Y156.372 E.60073
G1 X159.174 Y156.906 E.0168
G1 X172.688 Y170.421 E.60073
G1 X172.688 Y170.955 E.0168
M73 P0 R200
G1 X159.174 Y157.441 E.60073
G1 X159.174 Y157.976 E.0168
G1 X172.688 Y171.49 E.60073
G1 X172.688 Y171.757 E.0084
G1 X172.421 Y171.757 E.0084
G1 X158.906 Y158.243 E.60073
G1 X158.372 Y158.243 E.0168
G1 X171.886 Y171.757 E.60073
G1 X171.352 Y171.757 E.0168
M73 P1 R200
G1 X157.837 Y158.243 E.60073
G1 X157.303 Y158.243 E.0168
G1 X170.817 Y171.757 E.60073
G1 X170.282 Y171.757 E.0168
G1 X156.768 Y158.243 E.60073
G1 X156.233 Y158.243 E.0168
G1 X158.498 Y160.507 E.10066
G1 X157.963 Y160.507 E.0168
G1 X155.699 Y158.243 E.10066
G1 X155.424 Y158.243 E.00865
G1 X155.424 Y158.502 E.00816
G1 X157.429 Y160.507 E.08912
G1 X156.894 Y160.507 E.0168
G1 X155.424 Y159.037 E.06536
G1 X155.424 Y159.571 E.0168
G1 X156.359 Y160.507 E.0416
G1 X155.825 Y160.507 E.0168
G1 X155.254 Y159.936 E.02538
M204 P1000
G1 E-2.24 F4200
;WIPE_START
G1 F7200
G1 X155.825 Y160.507 E-.44738
G1 X156.359 Y160.507 E-.29625
G1 X156.145 Y160.292 E-.16836
;WIPE_END
G1 E-.048 F4200
G1 Z.4 F720
G1 X159.004 Y161.013 F9000
G1 Z.2 F720
G1 E3.2 F2400
M204 P200
G1 F300
G1 X169.748 Y171.757 E.47758
G1 X169.213 Y171.757 E.0168
G1 X159.174 Y161.718 E.44627
G1 X159.174 Y162.252 E.0168
G1 X168.938 Y172.017 E.43404
G1 X168.938 Y172.551 E.0168
G1 X159.174 Y162.787 E.43404
G1 X159.174 Y163.321 E.0168
G1 X168.938 Y173.086 E.43404
G1 X168.938 Y173.62 E.0168
G1 X159.174 Y163.856 E.43404
G1 X159.174 Y164.391 E.0168
G1 X166.54 Y171.757 E.32745
G1 X166.006 Y171.757 E.0168
G1 X159.174 Y164.925 E.30369
G1 X159.174 Y165.46 E.0168
G1 X165.471 Y171.757 E.27993
G1 X164.936 Y171.757 E.0168
G1 X158.922 Y165.743 E.26735
G1 X158.387 Y165.743 E.0168
G1 X164.402 Y171.757 E.26735
G1 X163.867 Y171.757 E.0168
G1 X157.853 Y165.743 E.26735
G1 X157.318 Y165.743 E.0168
M73 P1 R199
G1 X163.333 Y171.757 E.26735
G1 X162.798 Y171.757 E.0168
G1 X156.784 Y165.743 E.26735
G1 X156.249 Y165.743 E.0168
G1 X158.514 Y168.007 E.10066
G1 X157.979 Y168.007 E.0168
G1 X155.715 Y165.743 E.10066
G1 X155.18 Y165.743 E.0168
G1 X157.444 Y168.007 E.10066
G1 X156.91 Y168.007 E.0168
G1 X154.654 Y165.751 E.10028
G1 X154.411 Y165.781 E.00768
G1 X154.221 Y165.853 E.0064
G1 X156.375 Y168.007 E.09577
G1 X155.841 Y168.007 E.0168
G1 X153.901 Y166.068 E.08621
G1 X153.753 Y166.235 E.00701
G1 X153.678 Y166.379 E.00511
G1 X155.306 Y168.007 E.07238
G1 X154.771 Y168.007 E.0168
G1 X153.562 Y166.798 E.05376
G1 X153.562 Y167.011 E.0067
G1 X153.627 Y167.275 E.00854
G1 X153.753 Y167.515 E.00854
G1 X154.362 Y168.132 E.02724
M204 P1000
G1 E-2.24 F4200
;WIPE_START
G1 F7200
G1 X153.753 Y167.515 E-.48019
G1 X153.627 Y167.275 E-.15054
G1 X153.562 Y167.011 E-.15058
G1 X153.562 Y166.798 E-.11809
G1 X153.578 Y166.814 E-.01259
;WIPE_END
G1 E-.048 F4200
G1 Z.4 F720
G1 X159.004 Y168.498 F9000
G1 Z.2 F720
G1 E3.2 F2400
M204 P200
G1 F300
G1 X162.264 Y171.757 E.14489
G1 X161.729 Y171.757 E.0168
G1 X159.174 Y169.202 E.11359
G1 X159.174 Y169.737 E.0168
G1 X161.194 Y171.757 E.08982
G1 X160.838 Y171.757 E.0112
G1 X160.838 Y171.936 E.0056
G1 X159.174 Y170.271 E.07398
G1 X159.174 Y170.806 E.0168
G1 X160.838 Y172.47 E.07398
G1 X160.838 Y173.005 E.0168
G1 X159.174 Y171.34 E.07398
G1 X159.174 Y171.875 E.0168
G1 X160.838 Y173.539 E.07398
G1 X160.838 Y174.074 E.0168
G1 X159.174 Y172.409 E.07398
G1 X159.174 Y172.944 E.0168
G1 X160.838 Y174.608 E.07398
G1 X160.838 Y175.143 E.0168
G1 X159.174 Y173.479 E.07398
G1 X159.174 Y174.013 E.0168
G1 X160.668 Y175.507 E.06641
G1 X160.133 Y175.507 E.0168
G1 X159.174 Y174.548 E.04265
G1 X159.174 Y175.082 E.0168
G1 X159.768 Y175.677 E.02643
M204 P1000
G1 E-2.24 F4200
;WIPE_START
G1 F7200
G1 X159.174 Y175.082 E-.46589
G1 X159.174 Y174.548 E-.29625
G1 X159.365 Y174.739 E-.14986
;WIPE_END
G1 E-.048 F4200
G1 Z.4 F720
G1 X167.104 Y172.321 F9000
G1 Z.2 F720
G1 E3.2 F2400
M204 P200
G1 F300
G1 X168.938 Y174.155 E.08153
G1 X168.938 Y174.69 E.0168
G1 X167.274 Y173.025 E.07398
G1 X167.274 Y173.56 E.0168
G1 X168.938 Y175.224 E.07398
G1 X168.938 Y175.507 E.0089
G1 X168.686 Y175.507 E.00791
G1 X167.274 Y174.094 E.0628
G1 X167.274 Y174.629 E.0168
G1 X168.152 Y175.507 E.03904
G1 X167.617 Y175.507 E.0168
G1 X167.104 Y174.994 E.02282
M204 P1000
; stop printing object ChIPs_3.stl id:0 copy 0
M106 S84.15
;LAYER_CHANGE
;Z:0.4
;HEIGHT:0.2
;BEFORE_LAYER_CHANGE
G92 E0.0
;0.4


G1 Z.4 F720
;AFTER_LAYER_CHANGE
;0.4
; printing object ChIPs_3.stl id:0 copy 0
G1 X166.806 Y174.994 F9000
M204 P800
;TYPE:External perimeter
;WIDTH:0.45
G1 F1800
G1 X166.806 Y172.225 E.09372
G1 X161.306 Y172.225 E.18617
G1 X161.306 Y175.975 E.12693
G1 X158.706 Y175.975 E.08801
G1 X158.706 Y168.475 E.25387
G1 X154.694 Y168.475 E.13578
G1 X154.298 Y168.427 E.01351
G1 X153.938 Y168.29 E.01304
G1 X153.621 Y168.071 E.01304
G1 X153.365 Y167.783 E.01304
G1 X153.186 Y167.442 E.01304
G1 X153.094 Y167.068 E.01304
G1 X153.094 Y166.682 E.01304
G1 X153.186 Y166.308 E.01304
G1 X153.365 Y165.967 E.01304
G1 X153.621 Y165.679 E.01304
G1 X153.938 Y165.46 E.01304
G1 X154.298 Y165.323 E.01304
G1 X154.694 Y165.275 E.01351
G1 X158.706 Y165.275 E.13578
G1 X158.706 Y160.975 E.14555
G1 X154.956 Y160.975 E.12693
G1 X154.956 Y157.775 E.10832
G1 X158.706 Y157.775 E.12693
G1 X158.706 Y154.025 E.12693
G1 X161.906 Y154.025 E.10832
G1 X161.906 Y157.514 E.11809
G1 X161.967 Y158.015 E.01709
G1 X162.151 Y158.5 E.01756
G1 X162.445 Y158.927 E.01756
G1 X162.834 Y159.271 E.01756
G1 X163.293 Y159.512 E.01756
G1 X163.796 Y159.636 E.01756
G1 X164.315 Y159.636 E.01756
G1 X164.819 Y159.512 E.01756
G1 X165.278 Y159.271 E.01756
G1 X165.666 Y158.927 E.01756
G1 X165.961 Y158.5 E.01756
G1 X166.145 Y158.015 E.01756
G1 X166.206 Y157.514 E.01709
G1 X166.206 Y154.025 E.11809
G1 X169.406 Y154.025 E.10832
G1 X169.406 Y157.775 E.12693
G1 X176.906 Y157.775 E.25387
G1 X176.906 Y160.975 E.10832
G1 X173.156 Y160.975 E.12693
G1 X173.156 Y164.675 E.12524
G1 X176.906 Y164.675 E.12693
G1 X176.906 Y169.075 E.14893
G1 X173.156 Y169.075 E.12693
G1 X173.156 Y172.225 E.10662
G1 X169.406 Y172.225 E.12693
G1 X169.406 Y175.975 E.12693
G1 X166.806 Y175.975 E.08801
G1 X166.806 Y175.054 E.03118
M204 P1000
G1 E-2.24 F4200
;WIPE_START
G1 F7200
G1 X166.806 Y173.408 E-.912
;WIPE_END
G1 E-.048 F4200
G1 Z.6 F720
G1 X172.409 Y172.105 F9000
G1 Z.4 F720
G1 E3.2 F2400
;TYPE:Top solid infill
;WIDTH:0.400204
G1 X172.876 Y171.639 E.01962
G1 X172.876 Y171.133 E.01501
G1 X172.064 Y171.945 E.03409
G1 X171.559 Y171.945 E.01501
G1 X172.876 Y170.628 E.05532
G1 X172.876 Y170.123 E.01501
G1 X171.054 Y171.945 E.07655
G1 X170.548 Y171.945 E.01501
G1 X173.036 Y169.457 E.10453
G1 E-2.24 F4200
;WIPE_START
G1 F7200
G1 X171.873 Y170.62 E-.912
;WIPE_END
G1 E-.048 F4200
G1 Z.6 F720
G1 X176.064 Y168.955 F9000
G1 Z.4 F720
G1 E3.2 F2400
G1 X176.626 Y168.394 E.02359
G1 X176.626 Y167.889 E.01501
G1 X175.719 Y168.795 E.03807
G1 X175.214 Y168.795 E.01501
G1 X176.626 Y167.383 E.0593
G1 X176.626 Y166.878 E.01501
G1 X174.709 Y168.795 E.08053
G1 X174.204 Y168.795 E.01501
G1 X176.626 Y166.373 E.10176
G1 X176.626 Y165.867 E.01501
G1 X173.538 Y168.955 E.12974
G1 E-2.24 F4200
;WIPE_START
G1 F7200
G1 X174.701 Y167.792 E-.912
;WIPE_END
G1 E-.048 F4200
G1 Z.6 F720
G1 X176.786 Y165.201 F9000
G1 Z.4 F720
G1 E3.2 F2400
G1 X169.882 Y172.105 E.29006
G1 E-2.24 F4200
;WIPE_START
G1 F7200
G1 X171.046 Y170.942 E-.912
;WIPE_END
G1 E-.048 F4200
G1 Z.6 F720
G1 X169.286 Y175.228 F9000
G1 Z.4 F720
G1 E3.2 F2400
G1 X168.819 Y175.695 E.01961
G1 X168.314 Y175.695 E.01501
G1 X169.126 Y174.883 E.03409
G1 X169.126 Y174.378 E.01501
G1 X167.809 Y175.695 E.05532
G1 X167.304 Y175.695 E.01501
G1 X169.126 Y173.873 E.07655
G1 X169.126 Y173.367 E.01501
G1 X167.086 Y175.407 E.08568
G1 X167.086 Y174.902 E.01501
G1 X169.286 Y172.701 E.09243
G1 E-2.24 F4200
;WIPE_START
G1 F7200
G1 X168.123 Y173.865 E-.912
;WIPE_END
G1 E-.048 F4200
G1 Z.6 F720
G1 X166.925 Y174.557 F9000
G1 Z.4 F720
G1 E3.2 F2400
G1 X169.126 Y172.357 E.09243
G1 X169.126 Y171.945 E.01224
G1 X169.538 Y171.945 E.01224
G1 X176.527 Y164.955 E.29365
G1 X176.022 Y164.955 E.01501
G1 X167.086 Y173.891 E.37542
G1 X167.086 Y173.386 E.01501
G1 X175.517 Y164.955 E.35419
G1 X175.011 Y164.955 E.01501
G1 X167.086 Y172.88 E.33297
G1 X167.086 Y172.375 E.01501
G1 X174.506 Y164.955 E.31174
G1 X174.001 Y164.955 E.01501
G1 X167.011 Y171.945 E.29365
G1 X166.506 Y171.945 E.01501
G1 X173.495 Y164.955 E.29365
G1 X172.99 Y164.955 E.01501
G1 X166.001 Y171.945 E.29365
G1 X165.496 Y171.945 E.01501
G1 X172.876 Y164.565 E.31006
G1 X172.876 Y164.059 E.01501
G1 X164.99 Y171.945 E.33129
G1 X164.485 Y171.945 E.01501
G1 X172.876 Y163.554 E.35252
G1 X172.876 Y163.049 E.01501
G1 X163.98 Y171.945 E.37375
G1 X163.474 Y171.945 E.01501
G1 X172.876 Y162.544 E.39498
G1 X172.876 Y162.038 E.01501
G1 X162.969 Y171.945 E.41621
G1 X162.464 Y171.945 E.01501
G1 X173.036 Y161.372 E.44419
G1 E-2.24 F4200
;WIPE_START
G1 F7200
G1 X171.873 Y162.536 E-.912
;WIPE_END
G1 E-.048 F4200
G1 Z.6 F720
