; generated by PrusaSlicer 2.4.1+win64 on 2022-05-07 at 22:46:00 UTC
; ChIPs_4 Copyright 2022 Liao Choon Way. Licensed under CC BY 4.0

;
;

;
;
; 

; external perimeters extrusion width = 0.45mm
; perimeters extrusion width = 0.45mm
; infill extrusion width = 0.45mm
; solid infill extrusion width = 0.45mm
; top infill extrusion width = 0.40mm
; first layer extrusion width = 0.42mm

M73 P0 R237
M201 X2500 Y2500 Z400 E5000 ; sets maximum accelerations, mm/sec^2
M203 X180 Y180 Z12 E80 ; sets maximum feedrates, mm / sec
M204 P1250 R1250 T2500 ; sets acceleration (P, T) and retract acceleration (R), mm/sec^2
M205 X8.00 Y8.00 Z2.00 E10.00 ; sets the jerk limits, mm/sec
M205 S0 T0 ; sets the minimum extruding and travel feed rate, mm/sec
M107
;TYPE:Custom
M862.3 P "MINI" ; printer model check
G90 ; use absolute coordinates
M83 ; extruder relative mode
M104 S170 ; set extruder temp for bed leveling
M140 S60 ; set bed temp
M109 R170 ; wait for bed leveling temp
M190 S60 ; wait for bed temp
M204 T1250 ; set travel acceleration
G28 ; home all without mesh bed level
G29 ; mesh bed leveling 
M204 T2500 ; restore travel acceleration
M104 S215 ; set extruder temp
G92 E0
G1 Y-2 X179 F2400
G1 Z3 F720
M109 S215 ; wait for extruder temp

; intro line
G1 X170 F1000
G1 Z0.2 F720
G1 X110 E8 F900
G1 X40 E10 F700
G92 E0

M221 S95 ; set flow
G21 ; set units to millimeters
G90 ; use absolute coordinates
M83 ; use relative distances for extrusion
M900 K0.2 ; Filament gcode LA 1.5
; ; Filament gcode LA 1.0
M107
;LAYER_CHANGE
;Z:0.2
;HEIGHT:0.2
;BEFORE_LAYER_CHANGE
G92 E0.0
;0.2


G1 Z.2 F720
;AFTER_LAYER_CHANGE
;0.2
; printing object ChIPs_4.stl id:0 copy 0
G1 E-3.2 F4200
G1 Z.4 F720
G1 X155.141 Y156.085 F9000
G1 Z.2 F720
G1 E3.2 F2400
M204 P200
;TYPE:External perimeter
;WIDTH:0.42
G1 F300
G1 X158.891 Y156.085 E.11758
G1 X158.891 Y152.335 E.11758
G1 X161.721 Y152.335 E.08873
G1 X161.721 Y155.65 E.10393
G1 X161.786 Y156.185 E.01689
G1 X161.986 Y156.712 E.01767
G1 X162.306 Y157.175 E.01767
G1 X162.728 Y157.549 E.01767
G1 X163.227 Y157.811 E.01767
G1 X163.774 Y157.946 E.01767
G1 X164.338 Y157.946 E.01767
G1 X164.885 Y157.811 E.01767
G1 X165.384 Y157.549 E.01767
G1 X165.806 Y157.175 E.01767
G1 X166.126 Y156.712 E.01767
G1 X166.326 Y156.185 E.01767
G1 X166.391 Y155.65 E.01689
G1 X166.391 Y152.335 E.10393
G1 X169.221 Y152.335 E.08873
G1 X169.221 Y156.085 E.11758
G1 X176.721 Y156.085 E.23516
G1 X176.721 Y158.915 E.08873
G1 X172.971 Y158.915 E.11758
G1 X172.971 Y162.985 E.12761
G1 X176.721 Y162.985 E.11758
G1 X176.721 Y167.015 E.12636
G1 X172.971 Y167.015 E.11758
G1 X172.971 Y173.915 E.21634
G1 X169.221 Y173.915 E.11758
G1 X169.221 Y177.665 E.11758
G1 X166.991 Y177.665 E.06992
G1 X166.991 Y173.915 E.11758
G1 X161.121 Y173.915 E.18405
G1 X161.121 Y177.665 E.11758
G1 X158.891 Y177.665 E.06992
G1 X158.891 Y173.915 E.11758
G1 X155.141 Y173.915 E.11758
G1 X155.141 Y171.085 E.08873
G1 X158.891 Y171.085 E.11758
G1 X158.891 Y166.415 E.14642
G1 X154.706 Y166.415 E.13122
G1 X154.343 Y166.371 E.01146
G1 X154.025 Y166.25 E.01067
G1 X153.745 Y166.057 E.01067
G1 X153.519 Y165.802 E.01067
G1 X153.361 Y165.501 E.01067
G1 X153.279 Y165.17 E.01067
G1 X153.279 Y164.83 E.01067
G1 X153.361 Y164.499 E.01067
G1 X153.519 Y164.198 E.01067
G1 X153.745 Y163.943 E.01067
G1 X154.025 Y163.75 E.01067
G1 X154.343 Y163.629 E.01067
G1 X154.706 Y163.585 E.01146
G1 X158.891 Y163.585 E.13122
G1 X158.891 Y158.915 E.14642
G1 X155.141 Y158.915 E.11758
G1 X155.141 Y156.145 E.08685
M204 P1000
G1 E-2.24 F4200
;WIPE_START
G1 F7200
G1 X156.786 Y156.119 E-.912
;WIPE_END
G1 E-.048 F4200
G1 Z.4 F720
G1 X175.792 Y163.098 F9000
G1 Z.2 F720
G1 E3.2 F2400
M204 P200
;TYPE:Solid infill
;WIDTH:0.421008
G1 F300
G1 X176.438 Y163.744 E.02871
G1 X176.438 Y164.279 E.01681
G1 X175.427 Y163.268 E.04494
G1 X174.893 Y163.268 E.01681
G1 X176.438 Y164.813 E.06871
G1 X176.438 Y165.348 E.01681
G1 X174.358 Y163.268 E.09249
G1 X173.823 Y163.268 E.01681
G1 X176.438 Y165.883 E.11626
G1 X176.438 Y166.417 E.01681
G1 X173.119 Y163.098 E.14758
M204 P1000
G1 E-2.24 F4200
;WIPE_START
G1 F7200
G1 X174.282 Y164.262 E-.912
;WIPE_END
G1 E-.048 F4200
G1 Z.4 F720
G1 X176.608 Y156.963 F9000
G1 Z.2 F720
G1 E3.2 F2400
M204 P200
G1 F300
G1 X176.013 Y156.368 E.02644
G1 X175.478 Y156.368 E.01681
G1 X176.438 Y157.328 E.04267
G1 X176.438 Y157.862 E.01681
G1 X174.944 Y156.368 E.06644
G1 X174.409 Y156.368 E.01681
G1 X176.438 Y158.397 E.09022
G1 X176.438 Y158.632 E.0074
G1 X176.139 Y158.632 E.00941
G1 X173.874 Y156.368 E.10068
G1 X173.34 Y156.368 E.01681
M73 P0 R236
G1 X175.604 Y158.632 E.10068
G1 X175.069 Y158.632 E.01681
G1 X172.805 Y156.368 E.10068
G1 X172.27 Y156.368 E.01681
G1 X174.535 Y158.632 E.10068
G1 X174 Y158.632 E.01681
G1 X171.735 Y156.368 E.10068
G1 X171.201 Y156.368 E.01681
G1 X173.465 Y158.632 E.10068
G1 X172.93 Y158.632 E.01681
G1 X170.666 Y156.368 E.10068
G1 X170.131 Y156.368 E.01681
G1 X172.688 Y158.925 E.11367
G1 X172.688 Y159.459 E.01681
G1 X169.427 Y156.198 E.14499
M204 P1000
G1 E-2.24 F4200
;WIPE_START
G1 F7200
G1 X170.591 Y157.362 E-.912
;WIPE_END
G1 E-.048 F4200
G1 Z.4 F720
G1 X169.108 Y153.205 F9000
G1 Z.2 F720
G1 E3.2 F2400
M204 P200
G1 F300
G1 X168.52 Y152.618 E.02613
G1 X167.985 Y152.618 E.01681
G1 X168.938 Y153.57 E.04235
G1 X168.938 Y154.105 E.01681
G1 X167.451 Y152.618 E.06613
G1 X166.916 Y152.618 E.01681
G1 X168.938 Y154.64 E.0899
G1 X168.938 Y155.175 E.01681
G1 X166.674 Y152.91 E.10068
G1 X166.674 Y153.445 E.01681
G1 X169.108 Y155.879 E.10822
M204 P1000
G1 E-2.24 F4200
;WIPE_START
G1 F7200
G1 X167.944 Y154.715 E-.912
;WIPE_END
G1 E-.048 F4200
G1 Z.4 F720
G1 X166.504 Y153.81 F9000
G1 Z.2 F720
G1 E3.2 F2400
M204 P200
G1 F300
G1 X172.688 Y159.994 E.27495
G1 X172.688 Y160.529 E.01681
G1 X166.674 Y154.514 E.2674
G1 X166.674 Y155.049 E.01681
G1 X172.688 Y161.063 E.2674
G1 X172.688 Y161.598 E.01681
G1 X166.674 Y155.584 E.2674
G1 X166.625 Y156.069 E.01535
G1 X172.688 Y162.133 E.26957
G1 X172.688 Y162.667 E.01681
G1 X166.512 Y156.491 E.27459
G1 X166.359 Y156.873 E.01292
G1 X176.218 Y166.732 E.43836
G1 X175.683 Y166.732 E.01681
G1 X166.14 Y157.189 E.4243
G1 X166.019 Y157.364 E.0067
G1 X165.893 Y157.476 E.00531
G1 X175.149 Y166.732 E.41152
G1 X174.614 Y166.732 E.01681
G1 X165.609 Y157.727 E.40036
G1 X165.546 Y157.784 E.00267
G1 X165.274 Y157.926 E.00966
G1 X174.079 Y166.732 E.39151
G1 X173.545 Y166.732 E.01681
G1 X164.909 Y158.096 E.38395
G1 X164.48 Y158.202 E.01389
G1 X173.01 Y166.732 E.37925
G1 X172.688 Y166.732 E.01012
G1 X172.688 Y166.945 E.00669
G1 X163.802 Y158.059 E.39507
M204 P1000
G1 E-2.24 F4200
;WIPE_START
G1 F7200
G1 X164.966 Y159.223 E-.912
;WIPE_END
G1 E-.048 F4200
G1 Z.4 F720
G1 X160.865 Y152.448 F9000
G1 Z.2 F720
G1 E3.2 F2400
M204 P200
G1 F300
G1 X161.438 Y153.021 E.02549
G1 X161.438 Y153.556 E.01681
G1 X160.5 Y152.618 E.04172
G1 X159.965 Y152.618 E.01681
G1 X161.438 Y154.091 E.06549
G1 X161.438 Y154.626 E.01681
G1 X159.43 Y152.618 E.08927
G1 X159.174 Y152.618 E.00807
G1 X159.174 Y152.896 E.00874
G1 X161.438 Y155.16 E.10068
G1 X161.442 Y155.699 E.01693
G1 X159.174 Y153.431 E.10085
G1 X159.174 Y153.965 E.01681
G1 X161.539 Y156.33 E.10514
G1 X161.733 Y156.844 E.01727
G1 X162.093 Y157.364 E.01988
G1 X162.566 Y157.784 E.01988
G1 X163.126 Y158.077 E.01988
G1 X163.338 Y158.13 E.00688
G1 X172.688 Y167.48 E.4157
G1 X172.688 Y168.014 E.01681
G1 X159.174 Y154.5 E.60085
G1 X159.174 Y155.035 E.01681
G1 X172.688 Y168.549 E.60085
G1 X172.688 Y169.084 E.01681
G1 X159.174 Y155.569 E.60085
G1 X159.174 Y156.104 E.01681
M73 P0 R235
G1 X172.688 Y169.618 E.60085
G1 X172.688 Y170.153 E.01681
G1 X158.903 Y156.368 E.6129
G1 X158.368 Y156.368 E.01681
G1 X172.688 Y170.688 E.63667
G1 X172.688 Y171.223 E.01681
G1 X157.833 Y156.368 E.66045
G1 X157.299 Y156.368 E.01681
G1 X172.688 Y171.757 E.68422
G1 X172.688 Y172.292 E.01681
G1 X156.764 Y156.368 E.70799
G1 X156.229 Y156.368 E.01681
G1 X158.494 Y158.632 E.10068
G1 X157.959 Y158.632 E.01681
G1 X155.695 Y156.368 E.10068
G1 X155.424 Y156.368 E.00852
G1 X155.424 Y156.632 E.00829
G1 X157.424 Y158.632 E.08895
G1 X156.89 Y158.632 E.01681
G1 X155.424 Y157.166 E.06517
G1 X155.424 Y157.701 E.01681
G1 X156.355 Y158.632 E.0414
G1 X155.82 Y158.632 E.01681
G1 X155.254 Y158.066 E.02517
M204 P1000
G1 E-2.24 F4200
;WIPE_START
G1 F7200
G1 X155.82 Y158.632 E-.44372
G1 X156.355 Y158.632 E-.29631
G1 X156.135 Y158.413 E-.17197
;WIPE_END
G1 E-.048 F4200
G1 Z.4 F720
G1 X159.004 Y159.143 F9000
G1 Z.2 F720
G1 E3.2 F2400
M204 P200
G1 F300
G1 X172.688 Y172.827 E.6084
G1 X172.688 Y173.361 E.01681
M73 P1 R235
G1 X159.174 Y159.847 E.60085
G1 X159.174 Y160.382 E.01681
G1 X172.424 Y173.632 E.58912
G1 X171.89 Y173.632 E.01681
G1 X159.174 Y160.916 E.56535
G1 X159.174 Y161.451 E.01681
G1 X171.355 Y173.632 E.54158
G1 X170.82 Y173.632 E.01681
G1 X159.174 Y161.986 E.51781
G1 X159.174 Y162.52 E.01681
G1 X170.285 Y173.632 E.49403
G1 X169.751 Y173.632 E.01681
G1 X159.174 Y163.055 E.47026
G1 X159.174 Y163.59 E.01681
G1 X169.216 Y173.632 E.44649
G1 X168.938 Y173.632 E.00874
M73 P1 R234
G1 X168.938 Y173.889 E.00807
G1 X158.917 Y163.868 E.44554
G1 X158.382 Y163.868 E.01681
G1 X168.938 Y174.424 E.46931
G1 X168.938 Y174.958 E.01681
G1 X157.848 Y163.868 E.49309
G1 X157.313 Y163.868 E.01681
G1 X168.938 Y175.493 E.51686
G1 X168.938 Y176.028 E.01681
G1 X167.274 Y174.363 E.074
G1 X167.274 Y174.898 E.01681
G1 X168.938 Y176.562 E.074
G1 X168.938 Y177.097 E.01681
G1 X167.274 Y175.433 E.074
G1 X167.274 Y175.967 E.01681
G1 X168.688 Y177.382 E.0629
G1 X168.154 Y177.382 E.01681
G1 X167.274 Y176.502 E.03913
G1 X167.274 Y177.037 E.01681
G1 X167.789 Y177.552 E.0229
M204 P1000
G1 E-2.24 F4200
;WIPE_START
G1 F7200
G1 X167.274 Y177.037 E-.4037
G1 X167.274 Y176.502 E-.29631
G1 X167.544 Y176.773 E-.21199
;WIPE_END
G1 E-.048 F4200
G1 Z.4 F720
G1 X166.712 Y173.802 F9000
G1 Z.2 F720
G1 E3.2 F2400
M204 P200
G1 F300
G1 X156.778 Y163.868 E.44167
G1 X156.243 Y163.868 E.01681
G1 X158.508 Y166.132 E.10068
G1 X157.973 Y166.132 E.01681
G1 X155.709 Y163.868 E.10068
G1 X155.174 Y163.868 E.01681
G1 X157.438 Y166.132 E.10068
G1 X156.904 Y166.132 E.01681
G1 X154.648 Y163.877 E.10027
G1 X154.411 Y163.906 E.00752
G1 X154.216 Y163.979 E.00655
G1 X156.369 Y166.132 E.09571
G1 X155.834 Y166.132 E.01681
G1 X153.898 Y164.196 E.08608
G1 X153.753 Y164.36 E.00688
G1 X153.675 Y164.508 E.00526
G1 X155.3 Y166.132 E.07221
G1 X154.765 Y166.132 E.01681
G1 X153.562 Y164.929 E.05349
G1 X153.562 Y165.136 E.0065
G1 X153.627 Y165.4 E.00854
G1 X153.753 Y165.64 E.00854
G1 X154.351 Y166.253 E.02692
M204 P1000
G1 E-2.24 F4200
;WIPE_START
G1 F7200
G1 X153.753 Y165.64 E-.47455
G1 X153.627 Y165.4 E-.15054
G1 X153.562 Y165.136 E-.15058
G1 X153.562 Y164.929 E-.11455
G1 X153.59 Y164.957 E-.02177
;WIPE_END
G1 E-.048 F4200
G1 Z.4 F720
G1 X159.004 Y166.628 F9000
G1 Z.2 F720
G1 E3.2 F2400
M204 P200
G1 F300
G1 X166.008 Y173.632 E.3114
G1 X165.473 Y173.632 E.01681
G1 X159.174 Y167.333 E.28008
G1 X159.174 Y167.867 E.01681
G1 X164.938 Y173.632 E.25631
G1 X164.404 Y173.632 E.01681
G1 X159.174 Y168.402 E.23253
G1 X159.174 Y168.937 E.01681
G1 X163.869 Y173.632 E.20876
G1 X163.334 Y173.632 E.01681
G1 X159.174 Y169.471 E.18499
G1 X159.174 Y170.006 E.01681
G1 X162.8 Y173.632 E.16121
G1 X162.265 Y173.632 E.01681
G1 X159.174 Y170.541 E.13744
G1 X159.174 Y171.076 E.01681
G1 X161.73 Y173.632 E.11367
G1 X161.196 Y173.632 E.01681
G1 X158.931 Y171.368 E.10068
G1 X158.396 Y171.368 E.01681
G1 X160.838 Y173.809 E.10855
G1 X160.838 Y174.344 E.01681
G1 X157.862 Y171.368 E.13233
G1 X157.327 Y171.368 E.01681
G1 X160.838 Y174.879 E.1561
G1 X160.838 Y175.413 E.01681
G1 X156.792 Y171.368 E.17987
G1 X156.258 Y171.368 E.01681
G1 X158.522 Y173.632 E.10068
G1 X157.987 Y173.632 E.01681
G1 X155.723 Y171.368 E.10068
G1 X155.424 Y171.368 E.00941
G1 X155.424 Y171.603 E.0074
G1 X157.453 Y173.632 E.09021
G1 X156.918 Y173.632 E.01681
G1 X155.424 Y172.138 E.06644
G1 X155.424 Y172.673 E.01681
G1 X156.383 Y173.632 E.04267
G1 X155.849 Y173.632 E.01681
G1 X155.254 Y173.038 E.02644
M204 P1000
G1 E-2.24 F4200
;WIPE_START
G1 F7200
G1 X155.849 Y173.632 E-.46604
G1 X156.383 Y173.632 E-.29631
G1 X156.192 Y173.441 E-.14965
;WIPE_END
G1 E-.048 F4200
G1 Z.4 F720
G1 X159.004 Y174.114 F9000
G1 Z.2 F720
G1 E3.2 F2400
M204 P200
G1 F300
G1 X160.838 Y175.948 E.08154
G1 X160.838 Y176.483 E.01681
G1 X159.174 Y174.818 E.074
G1 X159.174 Y175.353 E.01681
G1 X160.838 Y177.018 E.074
G1 X160.838 Y177.382 E.01146
G1 X160.668 Y177.382 E.00535
G1 X159.174 Y175.888 E.06644
G1 X159.174 Y176.423 E.01681
G1 X160.133 Y177.382 E.04267
G1 X159.599 Y177.382 E.01681
G1 X159.004 Y176.788 E.02644
M204 P1000
; stop printing object ChIPs_4.stl id:0 copy 0
M106 S84.15
;LAYER_CHANGE
;Z:0.4
;HEIGHT:0.2
;BEFORE_LAYER_CHANGE
G92 E0.0
;0.4


G1 Z.4 F720
;AFTER_LAYER_CHANGE
;0.4
; printing object ChIPs_4.stl id:0 copy 0
G1 X158.706 Y176.788 F9000
M204 P800
;TYPE:External perimeter
;WIDTH:0.45
G1 F1800
G1 X158.706 Y174.1 E.09097
G1 X154.956 Y174.1 E.12693
G1 X154.956 Y170.9 E.10832
G1 X158.706 Y170.9 E.12693
G1 X158.706 Y166.6 E.14555
G1 X154.694 Y166.6 E.13578
G1 X154.298 Y166.552 E.01351
G1 X153.938 Y166.415 E.01304
G1 X153.621 Y166.196 E.01304
G1 X153.365 Y165.908 E.01304
G1 X153.186 Y165.567 E.01304
G1 X153.094 Y165.193 E.01304
G1 X153.094 Y164.807 E.01304
G1 X153.186 Y164.433 E.01304
G1 X153.365 Y164.092 E.01304
G1 X153.621 Y163.804 E.01304
G1 X153.938 Y163.585 E.01304
G1 X154.298 Y163.448 E.01304
G1 X154.694 Y163.4 E.01351
G1 X158.706 Y163.4 E.13578
G1 X158.706 Y159.1 E.14555
G1 X154.956 Y159.1 E.12693
G1 X154.956 Y155.9 E.10832
G1 X158.706 Y155.9 E.12693
G1 X158.706 Y152.15 E.12693
G1 X161.906 Y152.15 E.10832
G1 X161.906 Y155.639 E.11809
G1 X161.967 Y156.14 E.01709
G1 X162.151 Y156.625 E.01756
G1 X162.445 Y157.052 E.01756
G1 X162.834 Y157.396 E.01756
G1 X163.293 Y157.637 E.01756
G1 X163.796 Y157.761 E.01756
G1 X164.315 Y157.761 E.01756
G1 X164.819 Y157.637 E.01756
G1 X165.278 Y157.396 E.01756
G1 X165.666 Y157.052 E.01756
G1 X165.961 Y156.625 E.01756
G1 X166.145 Y156.14 E.01756
G1 X166.206 Y155.639 E.01709
G1 X166.206 Y152.15 E.11809
G1 X169.406 Y152.15 E.10832
G1 X169.406 Y155.9 E.12693
G1 X176.906 Y155.9 E.25387
G1 X176.906 Y159.1 E.10832
G1 X173.156 Y159.1 E.12693
G1 X173.156 Y162.8 E.12524
G1 X176.906 Y162.8 E.12693
G1 X176.906 Y167.2 E.14893
G1 X173.156 Y167.2 E.12693
G1 X173.156 Y174.1 E.23356
G1 X169.406 Y174.1 E.12693
G1 X169.406 Y177.85 E.12693
G1 X166.806 Y177.85 E.08801
G1 X166.806 Y174.1 E.12693
G1 X161.306 Y174.1 E.18617
G1 X161.306 Y177.85 E.12693
G1 X158.706 Y177.85 E.08801
G1 X158.706 Y176.848 E.03393
M204 P1000
G1 E-2.24 F4200
;WIPE_START
G1 F7200
G1 X158.706 Y175.202 E-.912
;WIPE_END
G1 E-.048 F4200
G1 Z.6 F720
G1 X176.159 Y158.98 F9000
G1 Z.4 F720
G1 E3.2 F2400
;TYPE:Top solid infill
;WIDTH:0.401383
G1 X176.626 Y158.514 E.01968
G1 X176.626 Y158.007 E.01511
G1 X175.812 Y158.82 E.03427
G1 X175.306 Y158.82 E.01511
G1 X176.626 Y157.5 E.05564
G1 X176.626 Y156.993 E.01511
G1 X174.799 Y158.82 E.07701
G1 X174.292 Y158.82 E.01511
G1 X176.626 Y156.486 E.09838
G1 X176.626 Y156.18 E.00911
G1 X176.424 Y156.18 E.006
G1 X173.624 Y158.98 E.11803
G1 E-2.24 F4200
;WIPE_START
G1 F7200
G1 X174.788 Y157.817 E-.912
;WIPE_END
G1 E-.048 F4200
G1 Z.6 F720
G1 X176.786 Y166.464 F9000
G1 Z.4 F720
G1 E3.2 F2400
G1 X176.33 Y166.92 E.01921
G1 X175.824 Y166.92 E.01511
G1 X176.626 Y166.118 E.03381
G1 X176.626 Y165.611 E.01511
G1 X175.317 Y166.92 E.05518
G1 X174.81 Y166.92 E.01511
G1 X176.626 Y165.104 E.07654
G1 X176.626 Y164.597 E.01511
G1 X174.303 Y166.92 E.09791
G1 X173.796 Y166.92 E.01511
G1 X176.786 Y163.929 E.12606
G1 E-2.24 F4200
;WIPE_START
G1 F7200
G1 X175.623 Y165.093 E-.912
;WIPE_END
G1 E-.048 F4200
G1 Z.6 F720
G1 X173.036 Y173.256 F9000
G1 Z.4 F720
G1 E3.2 F2400
G1 X172.472 Y173.82 E.02378
G1 X171.965 Y173.82 E.01511
G1 X172.876 Y172.909 E.03837
G1 X172.876 Y172.402 E.01511
G1 X171.458 Y173.82 E.05974
G1 X170.951 Y173.82 E.01511
G1 X172.876 Y171.895 E.08111
G1 X172.876 Y171.389 E.01511
M73 P1 R233
G1 X170.444 Y173.82 E.10248
G1 X169.937 Y173.82 E.01511
G1 X173.036 Y170.721 E.13062
G1 E-2.24 F4200
;WIPE_START
G1 F7200
G1 X171.873 Y171.885 E-.912
;WIPE_END
