; generated by PrusaSlicer 2.4.1+win64 on 2022-05-07 at 22:00:41 UTC
; ChIPs_2 Copyright 2022 Liao Choon Way. Licensed under CC BY 4.0

;
;

;
;
; 

; external perimeters extrusion width = 0.45mm
; perimeters extrusion width = 0.45mm
; infill extrusion width = 0.45mm
; solid infill extrusion width = 0.45mm
; top infill extrusion width = 0.40mm
; first layer extrusion width = 0.42mm

M73 P0 R217
M201 X2500 Y2500 Z400 E5000 ; sets maximum accelerations, mm/sec^2
M203 X180 Y180 Z12 E80 ; sets maximum feedrates, mm / sec
M204 P1250 R1250 T2500 ; sets acceleration (P, T) and retract acceleration (R), mm/sec^2
M205 X8.00 Y8.00 Z2.00 E10.00 ; sets the jerk limits, mm/sec
M205 S0 T0 ; sets the minimum extruding and travel feed rate, mm/sec
M107
;TYPE:Custom
M862.3 P "MINI" ; printer model check
G90 ; use absolute coordinates
M83 ; extruder relative mode
M104 S170 ; set extruder temp for bed leveling
M140 S60 ; set bed temp
M109 R170 ; wait for bed leveling temp
M190 S60 ; wait for bed temp
M204 T1250 ; set travel acceleration
G28 ; home all without mesh bed level
G29 ; mesh bed leveling 
M204 T2500 ; restore travel acceleration
M104 S215 ; set extruder temp
G92 E0
G1 Y-2 X179 F2400
G1 Z3 F720
M109 S215 ; wait for extruder temp

; intro line
G1 X170 F1000
G1 Z0.2 F720
G1 X110 E8 F900
G1 X40 E10 F700
G92 E0

M221 S95 ; set flow
G21 ; set units to millimeters
G90 ; use absolute coordinates
M83 ; use relative distances for extrusion
M900 K0.2 ; Filament gcode LA 1.5
; ; Filament gcode LA 1.0
M107
;LAYER_CHANGE
;Z:0.2
;HEIGHT:0.2
;BEFORE_LAYER_CHANGE
G92 E0.0
;0.2


G1 Z.2 F720
;AFTER_LAYER_CHANGE
;0.2
; printing object ChIPs_2.stl id:0 copy 0
G1 E-3.2 F4200
G1 Z.4 F720
G1 X157.016 Y156.085 F9000
G1 Z.2 F720
G1 E3.2 F2400
M204 P200
;TYPE:External perimeter
;WIDTH:0.42
G1 F300
G1 X160.766 Y156.085 E.11758
G1 X160.766 Y152.335 E.11758
G1 X163.596 Y152.335 E.08873
G1 X163.596 Y155.65 E.10393
G1 X163.661 Y156.185 E.01689
G1 X163.861 Y156.712 E.01767
G1 X164.181 Y157.175 E.01767
G1 X164.603 Y157.549 E.01767
G1 X165.102 Y157.811 E.01767
G1 X165.649 Y157.946 E.01767
G1 X166.213 Y157.946 E.01767
G1 X166.76 Y157.811 E.01767
G1 X167.259 Y157.549 E.01767
G1 X167.681 Y157.175 E.01767
G1 X168.001 Y156.712 E.01767
G1 X168.201 Y156.185 E.01767
G1 X168.266 Y155.65 E.01689
G1 X168.266 Y152.335 E.10393
G1 X171.096 Y152.335 E.08873
G1 X171.096 Y156.085 E.11758
G1 X174.846 Y156.085 E.11758
G1 X174.846 Y158.915 E.08873
G1 X171.096 Y158.915 E.11758
G1 X171.096 Y162.985 E.12761
G1 X174.846 Y162.985 E.11758
G1 X174.846 Y167.015 E.12636
G1 X171.096 Y167.015 E.11758
G1 X171.096 Y171.085 E.12761
G1 X174.846 Y171.085 E.11758
G1 X174.846 Y173.915 E.08873
G1 X171.096 Y173.915 E.11758
G1 X171.096 Y177.665 E.11758
G1 X168.866 Y177.665 E.06992
G1 X168.866 Y173.915 E.11758
G1 X162.996 Y173.915 E.18405
G1 X162.996 Y177.665 E.11758
G1 X160.766 Y177.665 E.06992
G1 X160.766 Y173.915 E.11758
G1 X157.016 Y173.915 E.11758
G1 X157.016 Y171.085 E.08873
G1 X160.766 Y171.085 E.11758
G1 X160.766 Y166.415 E.14642
G1 X156.581 Y166.415 E.13122
G1 X156.218 Y166.371 E.01146
G1 X155.9 Y166.25 E.01067
G1 X155.62 Y166.057 E.01067
G1 X155.394 Y165.802 E.01067
G1 X155.236 Y165.501 E.01067
G1 X155.154 Y165.17 E.01067
G1 X155.154 Y164.83 E.01067
G1 X155.236 Y164.499 E.01067
G1 X155.394 Y164.198 E.01067
G1 X155.62 Y163.943 E.01067
G1 X155.9 Y163.75 E.01067
G1 X156.218 Y163.629 E.01067
G1 X156.581 Y163.585 E.01146
G1 X160.766 Y163.585 E.13122
G1 X160.766 Y158.915 E.14642
G1 X157.016 Y158.915 E.11758
G1 X157.016 Y156.145 E.08685
M204 P1000
G1 E-2.24 F4200
;WIPE_START
G1 F7200
G1 X158.661 Y156.119 E-.912
;WIPE_END
G1 E-.048 F4200
G1 Z.4 F720
G1 X173.968 Y156.198 F9000
G1 Z.2 F720
G1 E3.2 F2400
M204 P200
;TYPE:Solid infill
;WIDTH:0.420932
G1 F300
G1 X174.563 Y156.793 E.02643
G1 X174.563 Y157.327 E.0168
G1 X173.604 Y156.368 E.04265
G1 X173.069 Y156.368 E.0168
G1 X174.563 Y157.862 E.06641
G1 X174.563 Y158.396 E.0168
G1 X172.534 Y156.368 E.09018
G1 X172 Y156.368 E.0168
G1 X174.264 Y158.632 E.10066
G1 X173.73 Y158.632 E.0168
G1 X171.296 Y156.198 E.1082
M204 P1000
G1 E-2.24 F4200
;WIPE_START
G1 F7200
G1 X172.459 Y157.362 E-.912
;WIPE_END
G1 E-.048 F4200
G1 Z.4 F720
G1 X170.983 Y153.212 F9000
G1 Z.2 F720
G1 E3.2 F2400
M204 P200
G1 F300
G1 X170.388 Y152.618 E.02643
G1 X169.854 Y152.618 E.0168
G1 X170.813 Y153.577 E.04265
G1 X170.813 Y154.112 E.0168
G1 X169.319 Y152.618 E.06641
G1 X168.784 Y152.618 E.0168
G1 X170.813 Y154.646 E.09018
G1 X170.813 Y155.181 E.0168
G1 X168.549 Y152.917 E.10066
G1 X168.549 Y153.451 E.0168
M73 P0 R216
G1 X170.983 Y155.885 E.1082
M204 P1000
G1 E-2.24 F4200
;WIPE_START
G1 F7200
G1 X169.819 Y154.722 E-.912
;WIPE_END
G1 E-.048 F4200
G1 Z.4 F720
G1 X168.379 Y153.816 F9000
G1 Z.2 F720
G1 E3.2 F2400
M204 P200
G1 F300
G1 X173.195 Y158.632 E.21408
G1 X172.66 Y158.632 E.0168
G1 X168.549 Y154.52 E.18278
G1 X168.549 Y155.055 E.0168
G1 X172.126 Y158.632 E.15901
G1 X171.591 Y158.632 E.0168
G1 X168.549 Y155.59 E.13525
G1 X168.499 Y156.075 E.01533
G1 X171.057 Y158.632 E.11369
G1 X170.813 Y158.632 E.00766
G1 X170.813 Y158.923 E.00915
G1 X168.385 Y156.496 E.10791
G1 X168.231 Y156.876 E.0129
G1 X170.813 Y159.458 E.11477
G1 X170.813 Y159.992 E.0168
G1 X168.013 Y157.192 E.12447
G1 X167.894 Y157.364 E.00657
G1 X167.765 Y157.479 E.00543
G1 X170.813 Y160.527 E.13549
G1 X170.813 Y161.062 E.0168
G1 X167.481 Y157.73 E.1481
G1 X167.421 Y157.784 E.00255
G1 X167.145 Y157.928 E.00978
G1 X170.813 Y161.596 E.16304
G1 X170.813 Y162.131 E.0168
G1 X166.78 Y158.097 E.17928
G1 X166.351 Y158.203 E.01388
G1 X170.983 Y162.835 E.20589
M204 P1000
G1 E-2.24 F4200
;WIPE_START
G1 F7200
G1 X169.819 Y161.671 E-.912
;WIPE_END
G1 E-.048 F4200
G1 Z.4 F720
G1 X174.733 Y171.931 F9000
G1 Z.2 F720
G1 E3.2 F2400
M204 P200
G1 F300
G1 X174.17 Y171.368 E.02503
G1 X173.635 Y171.368 E.0168
G1 X174.563 Y172.296 E.04125
G1 X174.563 Y172.83 E.0168
G1 X173.1 Y171.368 E.06501
G1 X172.566 Y171.368 E.0168
G1 X174.563 Y173.365 E.08878
G1 X174.563 Y173.632 E.0084
G1 X174.296 Y173.632 E.0084
G1 X172.031 Y171.368 E.10066
G1 X171.497 Y171.368 E.0168
G1 X173.931 Y173.802 E.1082
M204 P1000
G1 E-2.24 F4200
;WIPE_START
G1 F7200
G1 X172.767 Y172.638 E-.912
;WIPE_END
G1 E-.048 F4200
G1 Z.4 F720
G1 X174.733 Y163.912 F9000
G1 Z.2 F720
G1 E3.2 F2400
M204 P200
G1 F300
G1 X174.089 Y163.268 E.02864
G1 X173.554 Y163.268 E.0168
G1 X174.563 Y164.277 E.04486
G1 X174.563 Y164.812 E.0168
G1 X173.019 Y163.268 E.06862
G1 X172.485 Y163.268 E.0168
G1 X174.563 Y165.346 E.09238
G1 X174.563 Y165.881 E.0168
G1 X171.95 Y163.268 E.11615
G1 X171.416 Y163.268 E.0168
G1 X174.563 Y166.415 E.13991
G1 X174.563 Y166.732 E.00996
G1 X174.345 Y166.732 E.00684
G1 X165.672 Y158.059 E.38553
M204 P1000
G1 E-2.24 F4200
;WIPE_START
G1 F7200
G1 X166.836 Y159.223 E-.912
;WIPE_END
G1 E-.048 F4200
G1 Z.4 F720
G1 X163.483 Y153.197 F9000
G1 Z.2 F720
G1 E3.2 F2400
M204 P200
G1 F300
G1 X162.904 Y152.618 E.02573
G1 X162.369 Y152.618 E.0168
G1 X163.313 Y153.562 E.04195
G1 X163.313 Y154.096 E.0168
G1 X161.835 Y152.618 E.06571
G1 X161.3 Y152.618 E.0168
G1 X163.313 Y154.631 E.08948
G1 X163.313 Y155.165 E.0168
G1 X161.049 Y152.901 E.10066
G1 X161.049 Y153.435 E.0168
G1 X163.512 Y155.899 E.10951
M204 P1000
G1 E-2.24 F4200
;WIPE_START
G1 F7200
G1 X162.348 Y154.735 E-.912
;WIPE_END
G1 E-.048 F4200
G1 Z.4 F720
G1 X160.879 Y153.8 F9000
G1 Z.2 F720
G1 E3.2 F2400
M204 P200
G1 F300
G1 X163.416 Y156.338 E.1128
G1 X163.608 Y156.844 E.01701
G1 X163.968 Y157.364 E.01987
G1 X164.441 Y157.784 E.01987
G1 X165.001 Y158.077 E.01987
G1 X165.207 Y158.128 E.00667
G1 X173.811 Y166.732 E.38246
G1 X173.276 Y166.732 E.0168
G1 X161.049 Y154.505 E.54353
G1 X161.049 Y155.039 E.0168
G1 X172.742 Y166.732 E.51977
G1 X172.207 Y166.732 E.0168
G1 X161.049 Y155.574 E.496
G1 X161.049 Y156.108 E.0168
G1 X171.672 Y166.732 E.47224
G1 X171.138 Y166.732 E.0168
G1 X160.773 Y156.368 E.46071
G1 X160.239 Y156.368 E.0168
G1 X170.813 Y166.942 E.47004
G1 X170.813 Y167.477 E.0168
G1 X159.704 Y156.368 E.4938
G1 X159.17 Y156.368 E.0168
G1 X170.813 Y168.011 E.51756
G1 X170.813 Y168.546 E.0168
G1 X158.635 Y156.368 E.54133
G1 X158.1 Y156.368 E.0168
M73 P0 R215
G1 X160.365 Y158.632 E.10066
G1 X159.83 Y158.632 E.0168
G1 X157.566 Y156.368 E.10066
G1 X157.299 Y156.368 E.0084
G1 X157.299 Y156.635 E.0084
G1 X159.296 Y158.632 E.08877
G1 X158.761 Y158.632 E.0168
G1 X157.299 Y157.17 E.06501
G1 X157.299 Y157.704 E.0168
G1 X158.227 Y158.632 E.04125
G1 X157.692 Y158.632 E.0168
G1 X157.129 Y158.069 E.02503
M204 P1000
G1 E-2.24 F4200
;WIPE_START
G1 F7200
G1 X157.692 Y158.632 E-.44122
G1 X158.227 Y158.632 E-.29625
G1 X158.004 Y158.41 E-.17453
;WIPE_END
G1 E-.048 F4200
G1 Z.4 F720
G1 X160.879 Y159.146 F9000
G1 Z.2 F720
G1 E3.2 F2400
M204 P200
G1 F300
G1 X170.813 Y169.08 E.44158
G1 X170.813 Y169.615 E.0168
G1 X161.049 Y159.851 E.43404
G1 X161.049 Y160.385 E.0168
G1 X170.813 Y170.15 E.43404
G1 X170.813 Y170.684 E.0168
G1 X161.049 Y160.92 E.43404
G1 X161.049 Y161.454 E.0168
G1 X173.227 Y173.632 E.54132
G1 X172.692 Y173.632 E.0168
M73 P1 R215
G1 X161.049 Y161.989 E.51756
G1 X161.049 Y162.523 E.0168
G1 X172.157 Y173.632 E.4938
G1 X171.623 Y173.632 E.0168
G1 X161.049 Y163.058 E.47003
G1 X161.049 Y163.593 E.0168
G1 X171.088 Y173.632 E.44627
G1 X170.813 Y173.632 E.00865
G1 X170.813 Y173.892 E.00816
G1 X160.789 Y163.868 E.44557
G1 X160.255 Y163.868 E.0168
G1 X170.813 Y174.426 E.46934
G1 X170.813 Y174.961 E.0168
G1 X159.72 Y163.868 E.4931
G1 X159.185 Y163.868 E.0168
G1 X170.813 Y175.495 E.51686
G1 X170.813 Y176.03 E.0168
G1 X169.149 Y174.366 E.07398
G1 X169.149 Y174.9 E.0168
G1 X170.813 Y176.565 E.07398
G1 X170.813 Y177.099 E.0168
G1 X169.149 Y175.435 E.07398
G1 X169.149 Y175.969 E.0168
G1 X170.561 Y177.382 E.0628
G1 X170.027 Y177.382 E.0168
G1 X169.149 Y176.504 E.03904
G1 X169.149 Y177.039 E.0168
G1 X169.662 Y177.552 E.02282
M204 P1000
G1 E-2.24 F4200
;WIPE_START
G1 F7200
G1 X169.149 Y177.039 E-.40229
G1 X169.149 Y176.504 E-.29625
G1 X169.421 Y176.776 E-.21346
;WIPE_END
G1 E-.048 F4200
G1 Z.4 F720
G1 X168.585 Y173.802 F9000
G1 Z.2 F720
G1 E3.2 F2400
M204 P200
G1 F300
G1 X158.651 Y163.868 E.44158
G1 X158.116 Y163.868 E.0168
G1 X160.381 Y166.132 E.10066
G1 X159.846 Y166.132 E.0168
G1 X157.582 Y163.868 E.10066
G1 X157.047 Y163.868 E.0168
G1 X159.311 Y166.132 E.10066
G1 X158.777 Y166.132 E.0168
G1 X156.522 Y163.877 E.10025
G1 X156.286 Y163.906 E.00746
G1 X156.09 Y163.98 E.00659
G1 X158.242 Y166.132 E.09567
G1 X157.708 Y166.132 E.0168
G1 X155.772 Y164.197 E.08602
G1 X155.628 Y164.36 E.00684
G1 X155.55 Y164.509 E.0053
G1 X157.173 Y166.132 E.07215
G1 X156.639 Y166.132 E.0168
G1 X155.437 Y164.931 E.05341
G1 X155.437 Y165.136 E.00645
G1 X155.502 Y165.4 E.00854
G1 X155.628 Y165.64 E.00854
G1 X156.224 Y166.252 E.02685
M204 P1000
G1 E-2.24 F4200
;WIPE_START
G1 F7200
G1 X155.628 Y165.64 E-.47337
G1 X155.502 Y165.4 E-.15054
G1 X155.437 Y165.136 E-.15058
G1 X155.437 Y164.931 E-.11373
G1 X155.467 Y164.961 E-.02378
;WIPE_END
G1 E-.048 F4200
G1 Z.4 F720
G1 X160.879 Y166.631 F9000
G1 Z.2 F720
G1 E3.2 F2400
M204 P200
G1 F300
G1 X167.881 Y173.632 E.31123
G1 X167.346 Y173.632 E.0168
M73 P1 R214
G1 X161.049 Y167.335 E.27993
G1 X161.049 Y167.869 E.0168
G1 X166.811 Y173.632 E.25616
G1 X166.277 Y173.632 E.0168
G1 X161.049 Y168.404 E.2324
G1 X161.049 Y168.939 E.0168
G1 X165.742 Y173.632 E.20864
G1 X165.208 Y173.632 E.0168
G1 X161.049 Y169.473 E.18487
G1 X161.049 Y170.008 E.0168
G1 X164.673 Y173.632 E.16111
G1 X164.139 Y173.632 E.0168
G1 X161.049 Y170.542 E.13735
G1 X161.049 Y171.077 E.0168
G1 X163.604 Y173.632 E.11359
G1 X163.069 Y173.632 E.0168
G1 X160.805 Y171.368 E.10066
G1 X160.27 Y171.368 E.0168
G1 X162.713 Y173.811 E.10858
G1 X162.713 Y174.345 E.0168
G1 X159.736 Y171.368 E.13235
G1 X159.201 Y171.368 E.0168
G1 X162.713 Y174.88 E.15611
G1 X162.713 Y175.414 E.0168
G1 X158.667 Y171.368 E.17987
G1 X158.132 Y171.368 E.0168
G1 X160.396 Y173.632 E.10066
G1 X159.862 Y173.632 E.0168
G1 X157.597 Y171.368 E.10066
G1 X157.299 Y171.368 E.00939
G1 X157.299 Y171.604 E.00741
G1 X159.327 Y173.632 E.09017
G1 X158.793 Y173.632 E.0168
G1 X157.299 Y172.138 E.06641
G1 X157.299 Y172.673 E.0168
G1 X158.258 Y173.632 E.04265
G1 X157.723 Y173.632 E.0168
G1 X157.129 Y173.038 E.02643
M204 P1000
G1 E-2.24 F4200
;WIPE_START
G1 F7200
G1 X157.723 Y173.632 E-.4659
G1 X158.258 Y173.632 E-.29625
G1 X158.067 Y173.441 E-.14985
;WIPE_END
G1 E-.048 F4200
G1 Z.4 F720
G1 X160.879 Y174.115 F9000
G1 Z.2 F720
G1 E3.2 F2400
M204 P200
G1 F300
G1 X162.713 Y175.949 E.08153
G1 X162.713 Y176.483 E.0168
G1 X161.049 Y174.819 E.07398
G1 X161.049 Y175.354 E.0168
G1 X162.713 Y177.018 E.07398
G1 X162.713 Y177.382 E.01145
G1 X162.543 Y177.382 E.00536
G1 X161.049 Y175.888 E.06641
G1 X161.049 Y176.423 E.0168
G1 X162.008 Y177.382 E.04265
G1 X161.473 Y177.382 E.0168
G1 X160.879 Y176.788 E.02643
M204 P1000
; stop printing object ChIPs_2.stl id:0 copy 0
M106 S84.15
;LAYER_CHANGE
;Z:0.4
;HEIGHT:0.2
;BEFORE_LAYER_CHANGE
G92 E0.0
;0.4


G1 Z.4 F720
;AFTER_LAYER_CHANGE
;0.4
; printing object ChIPs_2.stl id:0 copy 0
G1 X160.581 Y176.788 F9000
M204 P800
;TYPE:External perimeter
;WIDTH:0.45
G1 F1800
G1 X160.581 Y174.1 E.09098
G1 X156.831 Y174.1 E.12693
G1 X156.831 Y170.9 E.10832
G1 X160.581 Y170.9 E.12693
G1 X160.581 Y166.6 E.14555
G1 X156.569 Y166.6 E.13578
G1 X156.173 Y166.552 E.01351
G1 X155.813 Y166.415 E.01304
G1 X155.496 Y166.196 E.01304
G1 X155.24 Y165.908 E.01304
G1 X155.061 Y165.567 E.01304
G1 X154.969 Y165.193 E.01304
G1 X154.969 Y164.807 E.01304
G1 X155.061 Y164.433 E.01304
G1 X155.24 Y164.092 E.01304
G1 X155.496 Y163.804 E.01304
G1 X155.813 Y163.585 E.01304
G1 X156.173 Y163.448 E.01304
G1 X156.569 Y163.4 E.01351
G1 X160.581 Y163.4 E.13578
G1 X160.581 Y159.1 E.14555
G1 X156.831 Y159.1 E.12693
G1 X156.831 Y155.9 E.10832
G1 X160.581 Y155.9 E.12693
G1 X160.581 Y152.15 E.12693
G1 X163.781 Y152.15 E.10832
G1 X163.781 Y155.639 E.11809
G1 X163.842 Y156.14 E.01709
G1 X164.026 Y156.625 E.01756
G1 X164.32 Y157.052 E.01756
G1 X164.709 Y157.396 E.01756
G1 X165.168 Y157.637 E.01756
G1 X165.671 Y157.761 E.01756
G1 X166.19 Y157.761 E.01756
G1 X166.694 Y157.637 E.01756
G1 X167.153 Y157.396 E.01756
G1 X167.541 Y157.052 E.01756
G1 X167.836 Y156.625 E.01756
G1 X168.02 Y156.14 E.01756
G1 X168.081 Y155.639 E.01709
G1 X168.081 Y152.15 E.11809
G1 X171.281 Y152.15 E.10832
G1 X171.281 Y155.9 E.12693
G1 X175.031 Y155.9 E.12693
G1 X175.031 Y159.1 E.10832
G1 X171.281 Y159.1 E.12693
G1 X171.281 Y162.8 E.12524
G1 X175.031 Y162.8 E.12693
G1 X175.031 Y167.2 E.14893
G1 X171.281 Y167.2 E.12693
G1 X171.281 Y170.9 E.12524
G1 X175.031 Y170.9 E.12693
G1 X175.031 Y174.1 E.10832
G1 X171.281 Y174.1 E.12693
G1 X171.281 Y177.85 E.12693
G1 X168.681 Y177.85 E.08801
G1 X168.681 Y174.1 E.12693
G1 X163.181 Y174.1 E.18617
G1 X163.181 Y177.85 E.12693
G1 X160.581 Y177.85 E.08801
G1 X160.581 Y176.848 E.03393
M204 P1000
G1 E-2.24 F4200
;WIPE_START
G1 F7200
G1 X160.581 Y175.202 E-.912
;WIPE_END
G1 E-.048 F4200
G1 Z.6 F720
G1 X163.061 Y176.995 F9000
G1 Z.4 F720
G1 E3.2 F2400
;TYPE:Top solid infill
;WIDTH:0.401383
G1 X162.486 Y177.57 E.02425
G1 X161.979 Y177.57 E.01511
G1 X162.901 Y176.648 E.03884
G1 X162.901 Y176.141 E.01511
G1 X161.472 Y177.57 E.06021
G1 X160.965 Y177.57 E.01511
G1 X162.901 Y175.634 E.08158
G1 X162.901 Y175.127 E.01511
G1 X160.861 Y177.167 E.08597
G1 X160.861 Y176.66 E.01511
G1 X163.061 Y174.46 E.09274
G1 E-2.24 F4200
;WIPE_START
G1 F7200
G1 X161.898 Y175.624 E-.912
;WIPE_END
G1 E-.048 F4200
G1 Z.6 F720
G1 X170.436 Y177.73 F9000
G1 Z.4 F720
G1 E3.2 F2400
G1 X171.001 Y177.166 E.02378
G1 X171.001 Y176.659 E.01511
G1 X170.09 Y177.57 E.03837
G1 X169.583 Y177.57 E.01511
G1 X171.001 Y176.152 E.05974
G1 X171.001 Y175.645 E.01511
G1 X169.076 Y177.57 E.08111
G1 X168.961 Y177.57 E.00343
G1 X168.961 Y177.178 E.01168
G1 X171.001 Y175.139 E.08597
G1 X171.001 Y174.632 E.01511
G1 X168.8 Y176.832 E.09274
G1 E-2.24 F4200
;WIPE_START
G1 F7200
G1 X169.964 Y175.668 E-.912
;WIPE_END
G1 E-.048 F4200
G1 Z.6 F720
G1 X174.186 Y173.98 F9000
G1 Z.4 F720
G1 E3.2 F2400
G1 X174.751 Y173.416 E.02378
G1 X174.751 Y172.909 E.01511
G1 X173.84 Y173.82 E.03837
G1 X173.333 Y173.82 E.01511
